(BANANA3)
(T3  D=0.5 CR=0.25 - ZMIN=-0.05 - BALL END MILL)
G90 G94 G91.1 G40 G49 G17
G20
G28 G91 Z0.
G90

(2D CONTOUR1)
M5
T3 M6
S18000 M3
G54
G0 X9.0141 Y6.7716
G43 Z2.6 H3
Z2.2
G1 Z0.95 F13.3
X9.0144 Y6.7717 Z0.9444 F120.
X9.0153 Y6.772 Z0.9389
X9.0168 Y6.7724 Z0.9335
X9.0188 Y6.773 Z0.9283
X9.0214 Y6.7738 Z0.9234
X9.0246 Y6.7747 Z0.9188
X9.0281 Y6.7758 Z0.9146
X9.0321 Y6.7769 Z0.9109
X9.0365 Y6.7782 Z0.9077
X9.0412 Y6.7796 Z0.905
X9.0462 Y6.7811 Z0.9028
X9.0514 Y6.7826 Z0.9013
X9.0567 Y6.7841 Z0.9003
X9.0621 Y6.7857 Z0.9
X9.11 Y6.7998
G3 X9.1439 Y6.8619 I-0.0141 J0.048
X8.8561 Y6.7773 I-0.1439 J-0.0423
X9.1439 Y6.8619 I0.1439 J0.0423
X9.0819 Y6.8958 I-0.048 J-0.0141
G1 X9.0339 Y6.8817
X9.0285 Y6.8801 Z0.9003
X9.0232 Y6.8785 Z0.9013
X9.018 Y6.877 Z0.9028
X9.0131 Y6.8756 Z0.905
X9.0084 Y6.8742 Z0.9077
X9.004 Y6.8729 Z0.9109
X9. Y6.8717 Z0.9146
X8.9964 Y6.8707 Z0.9188
X8.9933 Y6.8697 Z0.9234
X8.9907 Y6.869 Z0.9283
X8.9886 Y6.8684 Z0.9335
X8.9871 Y6.8679 Z0.9389
X8.9862 Y6.8677 Z0.9444
X8.9859 Y6.8676 Z0.95
X9.0141 Y6.7716
Z0. F13.3
X9.0144 Y6.7717 Z-0.0056 F120.
X9.0153 Y6.772 Z-0.0111
X9.0168 Y6.7724 Z-0.0165
X9.0188 Y6.773 Z-0.0217
X9.0214 Y6.7738 Z-0.0266
X9.0246 Y6.7747 Z-0.0312
X9.0281 Y6.7758 Z-0.0354
X9.0321 Y6.7769 Z-0.0391
X9.0365 Y6.7782 Z-0.0423
X9.0412 Y6.7796 Z-0.045
X9.0462 Y6.7811 Z-0.0472
X9.0514 Y6.7826 Z-0.0487
X9.0567 Y6.7841 Z-0.0497
X9.0621 Y6.7857 Z-0.05
X9.11 Y6.7998
G3 X9.1439 Y6.8619 I-0.0141 J0.048
X8.8561 Y6.7773 I-0.1439 J-0.0423
X9.1439 Y6.8619 I0.1439 J0.0423
X9.0819 Y6.8958 I-0.048 J-0.0141
G1 X9.0339 Y6.8817
X9.0285 Y6.8801 Z-0.0497
X9.0232 Y6.8785 Z-0.0487
X9.018 Y6.877 Z-0.0472
X9.0131 Y6.8756 Z-0.045
X9.0084 Y6.8742 Z-0.0423
X9.004 Y6.8729 Z-0.0391
X9. Y6.8717 Z-0.0354
X8.9964 Y6.8707 Z-0.0312
X8.9933 Y6.8697 Z-0.0266
X8.9907 Y6.869 Z-0.0217
X8.9886 Y6.8684 Z-0.0165
X8.9871 Y6.8679 Z-0.0111
X8.9862 Y6.8677 Z-0.0056
X8.9859 Y6.8676 Z0.
G0 Z2.2
X6.6133 Y9.9011
G1 Z0.95 F13.3
G18 G2 X6.6633 Z0.9 I0.05 K0. F120.
G1 X6.7133
G17 G3 X6.7633 Y9.9511 I0. J0.05
X6.4633 I-0.15 J0.
X6.7633 I0.15 J0.
X6.7133 Y10.0011 I-0.05 J0.
G1 X6.6633
G18 G3 X6.6133 Z0.95 I0. K0.05
G1 Y9.9011
Z0. F13.3
G2 X6.6633 Z-0.05 I0.05 K0. F120.
G1 X6.7133
G17 G3 X6.7633 Y9.9511 I0. J0.05
X6.4633 I-0.15 J0.
X6.7633 I0.15 J0.
X6.7133 Y10.0011 I-0.05 J0.
G1 X6.6633
G18 G3 X6.6133 Z0. I0. K0.05
G0 Z2.2
X11.4008 Y9.9032
G1 Z0.95 F13.3
X11.4011 Y9.9033 Z0.9444 F120.
X11.402 Y9.9035 Z0.9389
X11.4035 Y9.904 Z0.9335
X11.4055 Y9.9046 Z0.9283
X11.4081 Y9.9053 Z0.9234
X11.4112 Y9.9062 Z0.9188
X11.4148 Y9.9073 Z0.9146
X11.4188 Y9.9085 Z0.9109
X11.4232 Y9.9098 Z0.9077
X11.4279 Y9.9111 Z0.905
X11.4329 Y9.9126 Z0.9028
X11.4381 Y9.9141 Z0.9013
X11.4434 Y9.9157 Z0.9003
X11.4488 Y9.9173 Z0.9
X11.4967 Y9.9313
G17 G3 X11.5306 Y9.9934 I-0.0141 J0.048
X11.2428 Y9.9089 I-0.1439 J-0.0423
X11.5306 Y9.9934 I0.1439 J0.0423
X11.4686 Y10.0273 I-0.048 J-0.0141
G1 X11.4206 Y10.0132
X11.4152 Y10.0116 Z0.9003
X11.4099 Y10.0101 Z0.9013
X11.4047 Y10.0086 Z0.9028
X11.3998 Y10.0071 Z0.905
X11.3951 Y10.0057 Z0.9077
X11.3907 Y10.0044 Z0.9109
X11.3867 Y10.0032 Z0.9146
X11.3831 Y10.0022 Z0.9188
X11.38 Y10.0013 Z0.9234
X11.3774 Y10.0005 Z0.9283
X11.3753 Y9.9999 Z0.9335
X11.3738 Y9.9995 Z0.9389
X11.3729 Y9.9992 Z0.9444
X11.3726 Y9.9991 Z0.95
X11.4008 Y9.9032
Z0. F13.3
X11.4011 Y9.9033 Z-0.0056 F120.
X11.402 Y9.9035 Z-0.0111
X11.4035 Y9.904 Z-0.0165
X11.4055 Y9.9046 Z-0.0217
X11.4081 Y9.9053 Z-0.0266
X11.4112 Y9.9062 Z-0.0312
X11.4148 Y9.9073 Z-0.0354
X11.4188 Y9.9085 Z-0.0391
X11.4232 Y9.9098 Z-0.0423
X11.4279 Y9.9111 Z-0.045
X11.4329 Y9.9126 Z-0.0472
X11.4381 Y9.9141 Z-0.0487
X11.4434 Y9.9157 Z-0.0497
X11.4488 Y9.9173 Z-0.05
X11.4967 Y9.9313
G3 X11.5306 Y9.9934 I-0.0141 J0.048
X11.2428 Y9.9089 I-0.1439 J-0.0423
X11.5306 Y9.9934 I0.1439 J0.0423
X11.4686 Y10.0273 I-0.048 J-0.0141
G1 X11.4206 Y10.0132
X11.4152 Y10.0116 Z-0.0497
X11.4099 Y10.0101 Z-0.0487
X11.4047 Y10.0086 Z-0.0472
X11.3998 Y10.0071 Z-0.045
X11.3951 Y10.0057 Z-0.0423
X11.3907 Y10.0044 Z-0.0391
X11.3867 Y10.0032 Z-0.0354
X11.3831 Y10.0022 Z-0.0312
X11.38 Y10.0013 Z-0.0266
X11.3774 Y10.0005 Z-0.0217
X11.3753 Y9.9999 Z-0.0165
X11.3738 Y9.9995 Z-0.0111
X11.3729 Y9.9992 Z-0.0056
X11.3726 Y9.9991 Z0.
G0 Z2.6

(CONTOUR1)
G0 X0.8197 Y1.3098
Z2.6
Z2.
G1 X0.82 Y1.3099 Z1.9944 F120.
X0.8209 Y1.31 Z1.9889
X0.8224 Y1.3104 Z1.9835
X0.8245 Y1.3108 Z1.9783
X0.8272 Y1.3114 Z1.9734
X0.8303 Y1.312 Z1.9688
X0.834 Y1.3128 Z1.9646
X0.8381 Y1.3137 Z1.9609
X0.8426 Y1.3146 Z1.9577
X0.8474 Y1.3156 Z1.955
X0.8524 Y1.3167 Z1.9528
X0.8577 Y1.3178 Z1.9513
X0.8631 Y1.3189 Z1.9503
X0.8686 Y1.3201 Z1.95
G3 X0.9072 Y1.3793 I-0.0103 J0.0489
G2 X0.8924 Y1.5271 I0.6678 J0.1414
G1 Y14.1275
G2 X1.2587 Y14.7291 I0.6504 J0.0164
X1.5384 Y14.7877 I0.2714 J-0.5987
G1 X16.4616
G2 X17.0978 Y14.2475 I0.0107 J-0.6321
X17.1076 Y14.1275 I-0.5902 J-0.1087
G1 Y1.5271
G2 X16.6272 Y0.8895 I-0.6444 J-0.0143
X16.4616 Y0.8714 I-0.1628 J0.7202
G1 X1.5384
G2 X0.9078 Y1.3795 I-0.0102 J0.6328
G1 X0.9017 Y1.408
X0.8973 Y1.4369 Z1.9498
X0.8941 Y1.4661 Z1.9496
X0.8921 Y1.4956 Z1.9493
X0.8911 Y1.5258 Z1.949
X0.8905 Y1.5569 Z1.9485
X0.8898 Y1.5884 Z1.948
X0.889 Y1.6199 Z1.9473
X0.8881 Y1.6514 Z1.9467
X0.8871 Y1.6829 Z1.9459
X0.8861 Y1.7144 Z1.9451
X0.885 Y1.7459 Z1.9442
X0.8838 Y1.7774 Z1.9433
X0.8826 Y1.8089 Z1.9423
X0.8814 Y1.8404 Z1.9412
X0.8801 Y1.8719 Z1.9401
X0.8788 Y1.9034 Z1.939
X0.8776 Y1.9349 Z1.9379
X0.8763 Y1.9664 Z1.9368
X0.8751 Y1.9979 Z1.9357
X0.8739 Y2.0294 Z1.9346
X0.8727 Y2.0609 Z1.9335
X0.8715 Y2.0924 Z1.9324
X0.8703 Y2.1239 Z1.9313
X0.8692 Y2.1554 Z1.9302
X0.868 Y2.1869 Z1.9291
X0.8669 Y2.2184 Z1.928
X0.8658 Y2.2499 Z1.9269
X0.8647 Y2.2814 Z1.9258
X0.8636 Y2.3129 Z1.9247
X0.8625 Y2.3444 Z1.9236
X0.8615 Y2.3759 Z1.9225
X0.8604 Y2.4074 Z1.9214
X0.8594 Y2.4389 Z1.9203
X0.8584 Y2.4704 Z1.9192
X0.8574 Y2.5019 Z1.9181
X0.8564 Y2.5334 Z1.917
X0.8554 Y2.5649 Z1.9159
X0.8544 Y2.5964 Z1.9148
X0.8535 Y2.6279 Z1.9137
X0.8525 Y2.6594 Z1.9126
X0.8516 Y2.6909 Z1.9115
X0.8507 Y2.7224 Z1.9104
X0.8498 Y2.7539 Z1.9093
X0.8489 Y2.7854 Z1.9082
X0.8481 Y2.8169 Z1.9072
X0.8473 Y2.8484 Z1.9063
X0.8465 Y2.8799 Z1.9053
X0.8459 Y2.9114 Z1.9045
X0.8453 Y2.9429 Z1.9037
X0.8447 Y2.9744 Z1.903
X0.8442 Y3.0059 Z1.9023
X0.8437 Y3.0374 Z1.9017
X0.8434 Y3.0689 Z1.9012
X0.843 Y3.1004 Z1.9008
X0.8428 Y3.1319 Z1.9005
X0.8426 Y3.1634 Z1.9002
X0.8425 Y3.1949 Z1.9001
X0.8424 Y3.2264 Z1.9
Y3.2315
Y14.1275
G2 X1.1923 Y14.7511 I0.7028 J0.0157
X1.5384 Y14.8377 I0.3372 J-0.6126
G1 X16.4616
G2 X17.146 Y14.2625 I0.0106 J-0.6821
X17.1576 Y14.1275 I-0.6604 J-0.1246
G1 Y1.5271
G2 X16.6723 Y0.8502 I-0.6955 J-0.0138
X16.4616 Y0.8214 I-0.2062 J0.7222
G1 X1.5384
G2 X0.848 Y1.4383 I-0.0096 J0.6841
X0.8424 Y1.5271 I0.5197 J0.0771
G1 Y3.2315
Y3.263
X0.8423 Y3.2945 Z1.8998
X0.8421 Y3.326 Z1.8996
X0.8419 Y3.3575 Z1.8992
X0.8416 Y3.389 Z1.8988
X0.8412 Y3.4205 Z1.8983
X0.8408 Y3.452 Z1.8978
X0.8403 Y3.4835 Z1.8971
X0.8398 Y3.515 Z1.8964
X0.8392 Y3.5465 Z1.8956
X0.8386 Y3.578 Z1.8948
X0.838 Y3.6095 Z1.8939
X0.8373 Y3.641 Z1.8929
X0.8366 Y3.6725 Z1.8919
X0.8359 Y3.704 Z1.8909
X0.8352 Y3.7355 Z1.8898
X0.8344 Y3.767 Z1.8887
X0.8337 Y3.7985 Z1.8876
X0.833 Y3.83 Z1.8865
X0.8323 Y3.8615 Z1.8854
X0.8315 Y3.893 Z1.8843
X0.8308 Y3.9245 Z1.8832
X0.8302 Y3.956 Z1.8821
X0.8295 Y3.9875 Z1.881
X0.8288 Y4.019 Z1.8799
X0.8281 Y4.0505 Z1.8788
X0.8275 Y4.082 Z1.8777
X0.8268 Y4.1135 Z1.8766
X0.8262 Y4.145 Z1.8755
X0.8256 Y4.1765 Z1.8744
X0.8249 Y4.208 Z1.8733
X0.8243 Y4.2395 Z1.8722
X0.8237 Y4.271 Z1.8711
X0.8231 Y4.3025 Z1.87
X0.8225 Y4.334 Z1.8689
X0.8219 Y4.3655 Z1.8678
X0.8213 Y4.397 Z1.8667
X0.8207 Y4.4285 Z1.8656
X0.8202 Y4.46 Z1.8645
X0.8196 Y4.4915 Z1.8634
X0.8191 Y4.523 Z1.8623
X0.8185 Y4.5545 Z1.8612
X0.818 Y4.586 Z1.8601
X0.8174 Y4.6175 Z1.859
X0.8169 Y4.649 Z1.8579
X0.8164 Y4.6805 Z1.8569
X0.816 Y4.712 Z1.856
X0.8156 Y4.7435 Z1.8551
X0.8152 Y4.775 Z1.8542
X0.8148 Y4.8065 Z1.8535
X0.8145 Y4.838 Z1.8528
X0.8142 Y4.8695 Z1.8521
X0.814 Y4.901 Z1.8516
X0.8138 Y4.9325 Z1.8511
X0.8136 Y4.964 Z1.8507
X0.8135 Y4.9955 Z1.8504
X0.8134 Y5.027 Z1.8502
X0.8133 Y5.0585 Z1.85
Y5.0853
Y14.1275
G2 X1.2073 Y14.7921 I0.7302 J0.0162
X1.5384 Y14.8668 I0.3226 J-0.6588
G1 X16.4616
G2 X17.1755 Y14.2625 I0.0106 J-0.7112
X17.1867 Y14.1275 I-0.6784 J-0.1244
G1 Y1.5271
G2 X16.6873 Y0.8244 I-0.7248 J-0.0137
X16.4616 Y0.7923 I-0.221 J0.7436
G1 X1.5384
G2 X0.8207 Y1.4221 I-0.0098 J0.7127
X0.8133 Y1.5271 I0.5775 J0.093
G1 Y5.0853
Y5.1168
X0.8132 Y5.1483 Z1.8498
X0.8131 Y5.1798 Z1.8496
X0.813 Y5.2113 Z1.8492
X0.8128 Y5.2428 Z1.8488
X0.8126 Y5.2743 Z1.8483
X0.8123 Y5.3058 Z1.8478
X0.8121 Y5.3373 Z1.8471
X0.8118 Y5.3688 Z1.8464
X0.8114 Y5.4003 Z1.8456
X0.8111 Y5.4318 Z1.8448
X0.8107 Y5.4633 Z1.8439
X0.8103 Y5.4948 Z1.8429
X0.8099 Y5.5263 Z1.8419
X0.8095 Y5.5578 Z1.8409
X0.8091 Y5.5893 Z1.8398
X0.8087 Y5.6208 Z1.8387
X0.8083 Y5.6523 Z1.8376
X0.8079 Y5.6838 Z1.8365
X0.8075 Y5.7153 Z1.8354
X0.8071 Y5.7468 Z1.8343
X0.8067 Y5.7783 Z1.8332
X0.8063 Y5.8098 Z1.8321
X0.8059 Y5.8413 Z1.831
X0.8055 Y5.8728 Z1.8299
X0.8052 Y5.9043 Z1.8288
X0.8048 Y5.9358 Z1.8277
X0.8044 Y5.9673 Z1.8266
X0.8041 Y5.9988 Z1.8255
X0.8037 Y6.0303 Z1.8244
X0.8034 Y6.0618 Z1.8233
X0.8031 Y6.0933 Z1.8222
X0.8027 Y6.1248 Z1.8211
X0.8024 Y6.1563 Z1.82
X0.8021 Y6.1878 Z1.8189
X0.8018 Y6.2193 Z1.8178
X0.8015 Y6.2508 Z1.8167
X0.8012 Y6.2823 Z1.8156
X0.8009 Y6.3138 Z1.8145
X0.8006 Y6.3453 Z1.8134
X0.8003 Y6.3768 Z1.8123
X0.8 Y6.4083 Z1.8112
X0.7998 Y6.4398 Z1.8101
X0.7995 Y6.4713 Z1.809
X0.7992 Y6.5028 Z1.8079
X0.799 Y6.5343 Z1.8069
X0.7988 Y6.5658 Z1.806
X0.7986 Y6.5973 Z1.8051
X0.7984 Y6.6288 Z1.8042
X0.7982 Y6.6603 Z1.8035
X0.7981 Y6.6918 Z1.8028
X0.7979 Y6.7233 Z1.8021
X0.7978 Y6.7548 Z1.8016
X0.7977 Y6.7863 Z1.8011
X0.7976 Y6.8178 Z1.8007
Y6.8493 Z1.8004
X0.7975 Y6.8808 Z1.8002
Y6.9123 Z1.8
Y6.9393
Y14.1275
G2 X1.1472 Y14.7787 I0.7525 J0.0155
X1.5234 Y14.8836 I0.3784 J-0.6304
G1 X16.4766
G2 X17.1672 Y14.3669 I-0.0003 J-0.7202
X17.2025 Y14.1275 I-0.6999 J-0.2257
G1 Y1.5271
G2 X16.8227 Y0.8637 I-0.7473 J-0.0126
X16.4616 Y0.7759 I-0.3507 J0.6553
G1 X15.9056
X1.8991
X1.5384
G2 X0.8148 Y1.3621 I-0.0126 J0.724
X0.7975 Y1.5271 I0.6652 J0.1533
G1 Y6.9393
Y6.9708
X0.7974 Y7.0023 Z1.7998
Y7.0338 Z1.7996
X0.7973 Y7.0653 Z1.7992
X0.7972 Y7.0968 Z1.7988
X0.7971 Y7.1283 Z1.7983
X0.797 Y7.1598 Z1.7978
X0.7969 Y7.1913 Z1.7971
X0.7968 Y7.2228 Z1.7964
X0.7966 Y7.2543 Z1.7956
X0.7965 Y7.2858 Z1.7948
X0.7963 Y7.3173 Z1.7939
X0.7961 Y7.3488 Z1.7929
X0.796 Y7.3803 Z1.7919
X0.7958 Y7.4118 Z1.7909
X0.7956 Y7.4433 Z1.7898
X0.7954 Y7.4748 Z1.7887
X0.7953 Y7.5063 Z1.7876
X0.7928 Y7.9788 Z1.7711
X0.7911 Y8.2938 Z1.7601
X0.7909 Y8.3253 Z1.759
X0.7908 Y8.3568 Z1.7579
X0.7906 Y8.3883 Z1.7569
X0.7905 Y8.4198 Z1.756
X0.7904 Y8.4513 Z1.7551
X0.7902 Y8.4828 Z1.7542
X0.7901 Y8.5143 Z1.7535
X0.79 Y8.5458 Z1.7528
X0.7899 Y8.5773 Z1.7521
X0.7898 Y8.6088 Z1.7516
Y8.6403 Z1.7511
X0.7897 Y8.6718 Z1.7507
X0.7896 Y8.7032 Z1.7504
Y8.7347 Z1.7502
Y8.7663 Z1.75
Y8.7933
Y14.1425
G2 X1.1099 Y14.7741 I0.7579 J0.0126
X1.5234 Y14.8983 I0.4081 J-0.608
G1 X16.4766
G2 X17.1741 Y14.3825 I0.0069 J-0.7202
X17.2104 Y14.1425 I-0.7134 J-0.2304
G1 Y1.5121
G2 X16.8228 Y0.8461 I-0.749 J-0.0099
X16.4766 Y0.7622 I-0.3431 J0.6599
G1 X14.0721 Y0.7624
X3.1164 Y0.7625
X1.5234 Y0.7622
G2 X0.8108 Y1.3321 I-0.0052 J0.724
X0.7896 Y1.5121 I0.6849 J0.1719
G1 Y8.7933
Y8.8248
Y8.8563 Z1.7498
X0.7895 Y8.8878 Z1.7496
Y8.9193 Z1.7492
X0.7894 Y8.9508 Z1.7488
X0.7893 Y8.9823 Z1.7483
Y9.0138 Z1.7478
X0.7892 Y9.0453 Z1.7471
X0.789 Y9.0768 Z1.7464
X0.7889 Y9.1083 Z1.7456
X0.7888 Y9.1398 Z1.7448
X0.7887 Y9.1713 Z1.7439
X0.7885 Y9.2028 Z1.7429
X0.7884 Y9.2343 Z1.7419
X0.7882 Y9.2658 Z1.7409
X0.7854 Y9.8013 Z1.7222
X0.7835 Y10.1478 Z1.7101
X0.7834 Y10.1793 Z1.709
X0.7832 Y10.2108 Z1.7079
X0.7831 Y10.2423 Z1.7069
X0.7829 Y10.2738 Z1.706
X0.7828 Y10.3053 Z1.7051
X0.7827 Y10.3368 Z1.7042
X0.7826 Y10.3683 Z1.7035
X0.7824 Y10.3998 Z1.7028
X0.7823 Y10.4313 Z1.7021
Y10.4628 Z1.7016
X0.7822 Y10.4943 Z1.7011
X0.7821 Y10.5258 Z1.7007
Y10.5573 Z1.7004
Y10.5888 Z1.7002
X0.782 Y10.6203 Z1.7
Y10.6473
Y14.1575
G2 X1.0569 Y14.7547 I0.7635 J0.0104
X1.5234 Y14.9131 I0.4536 J-0.5693
G1 X16.4766
G2 X17.186 Y14.3825 I0.0136 J-0.7212
X17.218 Y14.1575 I-0.7236 J-0.2178
G1 Y7.5795
Y1.4971
G2 X16.8528 Y0.8454 I-0.7505 J-0.0076
X16.4766 Y0.7485 I-0.3672 J0.6472
G1 X12.2236 Y0.7489
X4.3337
X1.5234 Y0.7485
G2 X0.8002 Y1.332 I-0.0111 J0.7261
X0.782 Y1.4971 I0.6833 J0.1589
G1 Y10.6473
Y10.6788
Y10.7103 Z1.6998
Y10.7418 Z1.6996
X0.7819 Y10.7733 Z1.6992
X0.7818 Y10.8048 Z1.6988
Y10.8363 Z1.6983
X0.7817 Y10.8678 Z1.6978
X0.7816 Y10.8993 Z1.6971
X0.7815 Y10.9308 Z1.6964
X0.7814 Y10.9623 Z1.6956
X0.7812 Y10.9938 Z1.6948
X0.7811 Y11.0253 Z1.6939
X0.781 Y11.0568 Z1.6929
X0.7808 Y11.0883 Z1.6919
X0.7806 Y11.1198 Z1.6909
X0.7796 Y11.3088 Z1.6843
X0.7779 Y11.6553 Z1.6722
X0.7761 Y12.0018 Z1.6601
X0.776 Y12.0333 Z1.659
X0.7758 Y12.0648 Z1.6579
X0.7757 Y12.0963 Z1.6569
X0.7755 Y12.1278 Z1.656
X0.7754 Y12.1593 Z1.6551
X0.7753 Y12.1908 Z1.6542
X0.7752 Y12.2223 Z1.6535
X0.7751 Y12.2538 Z1.6528
X0.775 Y12.2853 Z1.6521
X0.7749 Y12.3168 Z1.6516
X0.7748 Y12.3483 Z1.6511
Y12.3798 Z1.6507
X0.7747 Y12.4113 Z1.6504
Y12.4428 Z1.6502
Y12.4743 Z1.65
X0.7746 Y12.5013
Y14.1725
G2 X1.102 Y14.8079 I0.7578 J0.0116
X1.5083 Y14.9279 I0.4019 J-0.6131
G1 X16.4917
G2 X17.1932 Y14.3976 I0.0059 J-0.7213
X17.2254 Y14.1725 I-0.7163 J-0.2173
G1 Y8.826
Y3.4194
Y1.4971
G2 X16.8662 Y0.8355 I-0.7528 J-0.0196
X16.4917 Y0.7351 I-0.3726 J0.641
G1 X13.3658
X13.3056
X10.3901 Y0.7354
X5.5359
X3.6123 Y0.7351
X3.5672
X1.5083
G2 X0.7968 Y1.302 I-0.0039 J0.7251
X0.7746 Y1.4971 I0.6959 J0.1778
G1 Y4.8311
Y12.5013
Y12.5328
Y12.5643 Z1.6498
Y12.5958 Z1.6496
X0.7745 Y12.6273 Z1.6492
Y12.6588 Z1.6488
X0.7744 Y12.6903 Z1.6483
X0.7743 Y12.7218 Z1.6478
X0.7742 Y12.7533 Z1.6471
X0.7741 Y12.7848 Z1.6464
X0.774 Y12.8163 Z1.6456
X0.7739 Y12.8478 Z1.6448
X0.7738 Y12.8793 Z1.6439
X0.7736 Y12.9108 Z1.6429
X0.7735 Y12.9423 Z1.6419
X0.7733 Y12.9738 Z1.6409
X0.7706 Y13.5093 Z1.6222
X0.7688 Y13.8558 Z1.6101
X0.7687 Y13.8873 Z1.609
X0.7685 Y13.9188 Z1.6079
X0.7684 Y13.9503 Z1.6069
X0.7682 Y13.9818 Z1.606
X0.7681 Y14.0133 Z1.6051
X0.768 Y14.0448 Z1.6042
X0.7679 Y14.0763 Z1.6035
X0.7678 Y14.1078 Z1.6028
X0.7677 Y14.1393 Z1.6021
X0.7676 Y14.1708 Z1.6016
X0.7677 Y14.2023 Z1.6011
X0.7687 Y14.2338 Z1.6007
X0.7709 Y14.2652 Z1.6004
X0.7743 Y14.2965 Z1.6002
X0.779 Y14.3276 Z1.6
X0.7841 Y14.3543
G2 X1.3579 Y14.9305 I0.7201 J-0.1432
X1.5083 Y14.9427 I0.1427 J-0.8301
G1 X16.4917
G2 X17.1958 Y14.4276 I0.0125 J-0.7218
X17.2326 Y14.1876 I-0.7103 J-0.2319
G1 Y8.9462
Y1.482
G2 X16.8378 Y0.8025 I-0.7504 J-0.0185
X16.4917 Y0.7217 I-0.3388 J0.6697
G1 X9.6838
X9.6237
X8.5416 Y0.7218
X6.7533
X6.0319 Y0.7217
X5.9868
X1.5083
G2 X0.7834 Y1.317 I-0.0101 J0.7268
X0.7674 Y1.482 I0.6962 J0.1511
G1 Y8.5557
Y14.1876
G2 X0.7841 Y14.3543 I0.8228 J0.0017
G1 X0.7911 Y14.3845
X0.7992 Y14.4145 Z1.5998
X0.8086 Y14.4442 Z1.5996
X0.819 Y14.4736 Z1.5993
X0.8307 Y14.5023 Z1.5989
X0.8435 Y14.5305 Z1.5984
X0.8574 Y14.5581 Z1.5978
X0.8725 Y14.5854 Z1.5972
X0.8884 Y14.6117 Z1.5965
X0.9055 Y14.6377 Z1.5958
X0.9238 Y14.6627 Z1.5949
X0.943 Y14.6869 Z1.5941
X0.963 Y14.7103 Z1.5931
X0.9843 Y14.7331 Z1.5921
X1.0061 Y14.7547 Z1.5911
X1.0293 Y14.7757 Z1.59
X1.053 Y14.7952 Z1.5889
X1.0777 Y14.814 Z1.5879
X1.1031 Y14.8316 Z1.5868
X1.1292 Y14.8482 Z1.5857
X1.156 Y14.8637 Z1.5846
X1.1836 Y14.8779 Z1.5835
X1.2119 Y14.8909 Z1.5825
X1.2406 Y14.9027 Z1.5814
X1.2698 Y14.9133 Z1.5803
X1.2995 Y14.9226 Z1.5792
X1.3294 Y14.9306 Z1.5781
X1.3597 Y14.9373 Z1.577
X1.3904 Y14.9427 Z1.5759
X1.4214 Y14.9467 Z1.5749
X1.4525 Y14.9493 Z1.5738
X1.4837 Y14.9506 Z1.5727
X1.5152 Y14.9511 Z1.5716
X1.8617 Y14.9546 Z1.5595
X1.8932 Y14.955 Z1.5584
X1.9247 Y14.9553 Z1.5574
X1.9562 Y14.9556 Z1.5564
X1.9877 Y14.9558 Z1.5555
X2.0192 Y14.9561 Z1.5546
X2.0507 Y14.9563 Z1.5538
X2.0822 Y14.9565 Z1.5531
X2.1137 Y14.9567 Z1.5524
X2.1452 Y14.9569 Z1.5518
X2.1767 Y14.9571 Z1.5513
X2.2082 Y14.9572 Z1.5509
X2.2397 Y14.9573 Z1.5505
X2.2712 Y14.9574 Z1.5503
X2.3027 Z1.5501
X2.3342 Z1.55
X2.3442
X16.5067
G2 X17.2027 Y14.4426 I0.0045 J-0.7217
X17.2398 Y14.2026 I-0.7056 J-0.2319
G1 Y9.0062
Y1.467
G2 X16.8735 Y0.8054 I-0.7523 J-0.0158
X16.5067 Y0.7085 I-0.3674 J0.6485
G1 X8.752
X7.4596 Y0.7086
X6.618 Y0.7085
X1.4933
G2 X0.7833 Y1.272 I-0.0018 J0.7269
X0.7602 Y1.467 I0.6954 J0.181
G1 Y4.726
Y9.5919
Y14.2026
G2 X1.087 Y14.8364 I0.7603 J0.0092
X1.4933 Y14.9574 I0.4032 J-0.6108
G1 X2.3442
X2.3757 Y14.9575
X2.4072 Z1.5498
X2.4387 Y14.9576 Z1.5496
X2.4702 Y14.9577 Z1.5492
X2.5017 Y14.9578 Z1.5488
X2.5332 Y14.9579 Z1.5483
X2.5647 Y14.9581 Z1.5478
X2.5962 Y14.9583 Z1.5471
X2.6277 Y14.9585 Z1.5464
X2.6592 Y14.9587 Z1.5456
X2.6907 Y14.959 Z1.5448
X2.7222 Y14.9592 Z1.5439
X2.7537 Y14.9595 Z1.5429
X2.7852 Y14.9598 Z1.5419
X2.8167 Y14.9601 Z1.5409
X3.3522 Y14.9657 Z1.5222
X3.6987 Y14.9692 Z1.5101
X3.7302 Y14.9696 Z1.509
X3.7617 Y14.9699 Z1.5079
X3.7932 Y14.9702 Z1.5069
X3.8247 Y14.9704 Z1.506
X3.8562 Y14.9707 Z1.5051
X3.8877 Y14.971 Z1.5042
X3.9192 Y14.9712 Z1.5035
X3.9507 Y14.9714 Z1.5028
X3.9822 Y14.9716 Z1.5021
X4.0137 Y14.9717 Z1.5016
X4.0452 Y14.9719 Z1.5011
X4.0767 Y14.972 Z1.5007
X4.1082 Y14.9721 Z1.5004
X4.1397 Y14.9722 Z1.5002
X4.1712 Z1.5
X4.1982
X16.5067
G2 X17.214 Y14.4426 I0.0106 J-0.7229
X17.2468 Y14.2176 I-0.7073 J-0.2181
G1 Y9.0062
Y1.452
G2 X16.8495 Y0.7753 I-0.7513 J-0.0139
X16.5067 Y0.6955 I-0.3366 J0.67
G1 X12.419
X7.4596 Y0.6957
X4.1984 Y0.6955
X1.4933
G2 X0.7769 Y1.257 I-0.0088 J0.7265
X0.7532 Y1.452 I0.699 J0.184
G1 Y8.4506
Y9.7121
Y14.2176
G2 X1.0419 Y14.8233 I0.7652 J0.007
X1.4933 Y14.9722 I0.4413 J-0.5792
G1 X4.1982
X4.2297
X4.2612 Y14.9723 Z1.4998
X4.2927 Z1.4996
X4.3242 Y14.9724 Z1.4992
X4.3557 Y14.9726 Z1.4988
X4.3872 Y14.9727 Z1.4983
X4.4187 Y14.9729 Z1.4978
X4.4502 Y14.9731 Z1.4971
X4.4817 Y14.9733 Z1.4964
X4.5132 Y14.9735 Z1.4956
X4.5447 Y14.9737 Z1.4948
X4.5762 Y14.974 Z1.4939
X4.6077 Y14.9743 Z1.4929
X4.6392 Y14.9746 Z1.4919
X4.6707 Y14.9749 Z1.4909
X5.2062 Y14.9804 Z1.4722
X5.5527 Y14.984 Z1.4601
X5.5842 Y14.9843 Z1.459
X5.6157 Y14.9846 Z1.4579
X5.6472 Y14.9849 Z1.4569
X5.6787 Y14.9852 Z1.456
X5.7102 Y14.9855 Z1.4551
X5.7417 Y14.9857 Z1.4542
X5.7732 Y14.986 Z1.4535
X5.8047 Y14.9862 Z1.4528
X5.8362 Y14.9863 Z1.4521
X5.8677 Y14.9865 Z1.4516
X5.8992 Y14.9867 Z1.4511
X5.9307 Y14.9868 Z1.4507
X5.9622 Y14.9869 Z1.4504
X5.9937 Z1.4502
X6.0252 Y14.987 Z1.45
X6.0521
X16.5217
G2 X17.2121 Y14.4849 I0.0025 J-0.7223
X17.2536 Y14.2326 I-0.7066 J-0.2458
G1 Y9.0963
Y2.8487
X17.2537 Y1.437
G2 X16.8679 Y0.7689 I-0.7512 J-0.0117
X16.5217 Y0.6825 I-0.3493 J0.6629
G1 X16.0859
X7.4596 Y0.6829
X1.7638 Y0.6825
X1.4783
G2 X0.7579 Y1.3037 I0.0011 J0.7296
X0.7463 Y1.437 I0.6515 J0.1236
G1 X0.7464 Y4.756
Y9.4868
Y14.2326
G2 X1.072 Y14.8649 I0.7631 J0.007
X1.4783 Y14.987 I0.4048 J-0.6103
G1 X6.0521
X6.0836
X6.1151 Z1.4498
X6.1466 Y14.9871 Z1.4496
X6.1781 Y14.9872 Z1.4492
X6.2096 Y14.9873 Z1.4488
X6.2411 Y14.9875 Z1.4483
X6.2726 Y14.9876 Z1.4478
X6.3041 Y14.9878 Z1.4471
X6.3356 Y14.988 Z1.4464
X6.3671 Y14.9883 Z1.4456
X6.3986 Y14.9885 Z1.4448
X6.4301 Y14.9888 Z1.4439
X6.4616 Y14.9891 Z1.4429
X6.4931 Y14.9894 Z1.4419
X6.5246 Y14.9897 Z1.4409
X7.0601 Y14.9952 Z1.4222
X7.4066 Y14.9988 Z1.4101
X7.4381 Y14.9991 Z1.409
X7.4696 Y14.9994 Z1.4079
X7.5011 Y14.9997 Z1.4069
X7.5326 Y15. Z1.406
X7.5641 Y15.0002 Z1.4051
X7.5956 Y15.0005 Z1.4042
X7.6271 Y15.0007 Z1.4035
X7.6586 Y15.0009 Z1.4028
X7.6901 Y15.0011 Z1.4021
X7.7216 Y15.0013 Z1.4016
X7.7531 Y15.0014 Z1.4011
X7.7846 Y15.0015 Z1.4007
X7.8161 Y15.0016 Z1.4004
X7.8476 Y15.0017 Z1.4002
X7.8791 Z1.4
X7.9061 Y15.0016
X16.5217
G2 X17.2176 Y14.5027 I0.0087 J-0.7227
X17.2603 Y14.2476 I-0.7142 J-0.2507
G1 Y9.0963
Y6.1828
X17.2604 Y1.437
G2 X16.8678 Y0.7528 I-0.7527 J-0.0229
X16.5217 Y0.6699 I-0.3427 J0.667
G1 X13.3808
X7.4596 Y0.6702
X3.5672 Y0.6699
X1.4783
G2 X0.7576 Y1.257 I-0.0055 J0.729
X0.7396 Y1.437 I0.7015 J0.1611
G1 X0.7397 Y8.4055
Y9.5469
Y14.2476
G2 X1.0118 Y14.8392 I0.7674 J0.0054
X1.4783 Y15.0016 I0.4583 J-0.5652
G1 X7.9061
X7.9376 Y15.0018
X7.9691 Z1.3998
X8.0006 Y15.0019 Z1.3996
X8.0321 Y15.002 Z1.3992
X8.0636 Y15.0021 Z1.3988
X8.0951 Y15.0022 Z1.3983
X8.1266 Y15.0024 Z1.3978
X8.1581 Y15.0026 Z1.3971
X8.1896 Y15.0028 Z1.3964
X8.2211 Y15.003 Z1.3956
X8.2526 Y15.0033 Z1.3948
X8.2841 Y15.0035 Z1.3939
X8.3156 Y15.0038 Z1.3929
X8.3471 Y15.0041 Z1.3919
X8.3786 Y15.0044 Z1.3909
X8.9141 Y15.01 Z1.3722
X9.2606 Y15.0135 Z1.3601
X9.2921 Y15.0139 Z1.359
X9.3236 Y15.0142 Z1.3579
X9.3551 Y15.0145 Z1.3569
X9.3866 Y15.0147 Z1.356
X9.4181 Y15.015 Z1.3551
X9.4496 Y15.0153 Z1.3542
X9.4811 Y15.0155 Z1.3535
X9.5126 Y15.0157 Z1.3528
X9.5441 Y15.0159 Z1.3521
X9.5756 Y15.016 Z1.3516
X9.6071 Y15.0162 Z1.3511
X9.6386 Y15.0163 Z1.3507
X9.6701 Y15.0164 Z1.3504
X9.7016 Y15.0165 Z1.3502
X9.7331 Z1.35
X9.7601
X16.5368
G2 X17.2187 Y14.5327 I0.0001 J-0.7225
X17.267 Y14.2626 I-0.7057 J-0.2654
G1 Y9.1414
Y1.407
G2 X16.8829 Y0.7448 I-0.7523 J-0.0061
X16.5217 Y0.6572 I-0.3512 J0.6592
G1 X9.6988
X7.4596 Y0.6573
X5.9868 Y0.6572
X1.4783
G2 X0.7486 Y1.2569 I-0.0118 J0.7294
X0.733 Y1.407 I0.6586 J0.1442
G1 Y9.4418
Y14.2626
G2 X1.072 Y14.9025 I0.7607 J0.0067
X1.4632 Y15.0165 I0.3925 J-0.6186
G1 X9.7601
X9.7916
X9.8231 Y15.0166 Z1.3498
X9.8546 Z1.3496
X9.8861 Y15.0167 Z1.3492
X9.9176 Y15.0169 Z1.3488
X9.9491 Y15.017 Z1.3483
X9.9806 Y15.0172 Z1.3478
X10.0121 Y15.0174 Z1.3471
X10.0436 Y15.0176 Z1.3464
X10.0751 Y15.0178 Z1.3456
X10.1066 Y15.018 Z1.3448
X10.1381 Y15.0183 Z1.3439
X10.1696 Y15.0186 Z1.3429
X10.2011 Y15.0189 Z1.3419
X10.2326 Y15.0192 Z1.3409
X10.7681 Y15.0247 Z1.3222
X11.1146 Y15.0283 Z1.3101
X11.1461 Y15.0286 Z1.309
X11.1776 Y15.0289 Z1.3079
X11.2091 Y15.0292 Z1.3069
X11.2406 Y15.0295 Z1.306
X11.2721 Y15.0298 Z1.3051
X11.3036 Y15.03 Z1.3042
X11.3351 Y15.0303 Z1.3035
X11.3666 Y15.0305 Z1.3028
X11.3981 Y15.0306 Z1.3021
X11.4296 Y15.0308 Z1.3016
X11.4611 Y15.031 Z1.3011
X11.4926 Y15.0311 Z1.3007
X11.5241 Y15.0312 Z1.3004
X11.5556 Z1.3002
X11.5871 Y15.0313 Z1.3
X11.614
X16.5368
G2 X17.2301 Y14.5327 I0.0059 J-0.7232
X17.2734 Y14.2777 I-0.7058 J-0.251
G1 Y9.1264
X17.2735 Y1.407
G2 X16.8828 Y0.7291 I-0.7522 J-0.018
X16.5368 Y0.6446 I-0.3454 J0.6633
G1 X8.7069
X7.4596 Y0.6447
X6.6481 Y0.6446
X1.4632
G2 X0.7425 Y1.2419 I-0.0023 J0.7306
X0.7265 Y1.407 I0.6985 J0.151
G1 X0.7266 Y9.3667
Y14.2777
G2 X1.087 Y14.9305 I0.7613 J0.0056
X1.4632 Y15.0313 I0.3722 J-0.6372
G1 X11.614
X11.6455
X11.677 Z1.2998
X11.7085 Y15.0314 Z1.2996
X11.74 Y15.0315 Z1.2992
X11.7715 Y15.0316 Z1.2988
X11.803 Y15.0318 Z1.2983
X11.8345 Y15.0319 Z1.2978
X11.866 Y15.0321 Z1.2971
X11.8975 Y15.0323 Z1.2964
X11.929 Y15.0326 Z1.2956
X11.9605 Y15.0328 Z1.2948
X11.992 Y15.0331 Z1.2939
X12.0235 Y15.0334 Z1.2929
X12.055 Y15.0337 Z1.2919
X12.0865 Y15.034 Z1.2909
X12.622 Y15.0395 Z1.2722
X12.9685 Y15.0431 Z1.2601
X13. Y15.0434 Z1.259
X13.0315 Y15.0437 Z1.2579
X13.063 Y15.044 Z1.2569
X13.0945 Y15.0443 Z1.256
X13.126 Y15.0445 Z1.2551
X13.1575 Y15.0448 Z1.2542
X13.189 Y15.045 Z1.2535
X13.2205 Y15.0452 Z1.2528
X13.252 Y15.0454 Z1.2521
X13.2835 Y15.0456 Z1.2516
X13.315 Y15.0457 Z1.2511
X13.3465 Y15.0458 Z1.2507
X13.378 Y15.0459 Z1.2504
X13.4095 Y15.046 Z1.2502
X13.441 Z1.25
X13.468
X16.5368
G2 X17.2458 Y14.5177 I0.011 J-0.7252
X17.2798 Y14.2777 I-0.7193 J-0.2242
G1 Y9.1264
Y1.3919
G2 X16.8527 Y0.6986 I-0.7514 J-0.0154
X16.5368 Y0.6323 I-0.3103 J0.6922
G1 X12.3138
X7.4596 Y0.6325
X4.2585 Y0.6323
X1.4632
G2 X0.7369 Y1.2269 I-0.0084 J0.7306
X0.7202 Y1.3919 I0.6702 J0.1512
G1 Y9.4568
Y14.2777
G2 X1.0118 Y14.8981 I0.7699 J0.0169
X1.4632 Y15.046 I0.4406 J-0.5816
G1 X13.468
X13.4995 Y15.0461
X13.531 Z1.2498
X13.5625 Y15.0462 Z1.2496
X13.594 Y15.0463 Z1.2492
X13.6255 Y15.0464 Z1.2488
X13.657 Y15.0465 Z1.2483
X13.6885 Y15.0467 Z1.2478
X13.72 Y15.0469 Z1.2471
X13.7515 Y15.0471 Z1.2464
X13.783 Y15.0473 Z1.2456
X13.8145 Y15.0476 Z1.2448
X13.846 Y15.0478 Z1.2439
X13.8775 Y15.0481 Z1.2429
X13.909 Y15.0484 Z1.2419
X13.9405 Y15.0487 Z1.2409
X14.476 Y15.0543 Z1.2222
X14.8225 Y15.0578 Z1.2101
X14.854 Y15.0582 Z1.209
X14.8855 Y15.0585 Z1.2079
X14.917 Y15.0588 Z1.2069
X14.9485 Y15.059 Z1.206
X14.98 Y15.0593 Z1.2051
X15.0115 Y15.0596 Z1.2042
X15.043 Y15.0598 Z1.2035
X15.0745 Y15.06 Z1.2028
X15.106 Y15.0602 Z1.2021
X15.1375 Y15.0603 Z1.2016
X15.169 Y15.0605 Z1.2011
X15.2005 Y15.0606 Z1.2007
X15.232 Y15.0607 Z1.2004
X15.2635 Y15.0608 Z1.2002
X15.295 Z1.2
X15.322
X16.5518
G2 X17.2368 Y14.5777 I0.0026 J-0.7237
X17.286 Y14.2927 I-0.7105 J-0.2692
G1 Y9.1264
Y1.3769
G2 X16.8207 Y0.6702 I-0.7494 J-0.0132
X16.5518 Y0.6199 I-0.2735 J0.7194
G1 X15.9206
X7.4596 Y0.6203
X1.869 Y0.6199
X1.4482
G2 X0.7257 Y1.2419 I0.0013 J0.732
X0.714 Y1.3769 I0.6554 J0.125
G1 Y9.4568
Y14.2927
G2 X1.0118 Y14.9175 I0.7708 J0.016
X1.4482 Y15.0608 I0.4345 J-0.5871
G1 X15.322
X15.3535
X15.385 Y15.0609 Z1.1998
X15.4165 Z1.1996
X15.448 Y15.061 Z1.1992
X15.4795 Y15.0612 Z1.1988
X15.511 Y15.0613 Z1.1983
X15.5425 Y15.0615 Z1.1978
X15.574 Y15.0617 Z1.1971
X15.6055 Y15.0619 Z1.1964
X15.637 Y15.0621 Z1.1956
X15.6685 Y15.0623 Z1.1948
X15.7 Y15.0626 Z1.1939
X15.7315 Y15.0629 Z1.1929
X15.763 Y15.0632 Z1.1919
X15.7945 Y15.0635 Z1.1909
X16.33 Y15.069 Z1.1722
X16.5505 Y15.0713 Z1.1645
X16.5818 Y15.0712 Z1.1634
X16.6131 Y15.0699 Z1.1623
X16.6444 Y15.0673 Z1.1612
X16.6755 Y15.0633 Z1.1601
X16.7064 Y15.058 Z1.159
X16.737 Y15.0513 Z1.158
X16.7674 Y15.0433 Z1.157
X16.7974 Y15.034 Z1.156
X16.827 Y15.0232 Z1.1551
X16.856 Y15.0111 Z1.1543
X16.8845 Y14.9978 Z1.1535
X16.9123 Y14.9832 Z1.1528
X16.9396 Y14.9674 Z1.1522
X16.9661 Y14.9505 Z1.1516
X16.9918 Y14.9323 Z1.1511
X17.0166 Y14.9129 Z1.1507
X17.0406 Y14.8925 Z1.1504
X17.0637 Y14.8711 Z1.1502
X17.0859 Y14.8487 Z1.15
X17.1054 Y14.827
G2 X17.292 Y14.3077 I-0.5883 J-0.5045
G1 Y9.0513
Y1.3769
G2 X16.8678 Y0.6761 I-0.7526 J-0.0232
X16.5518 Y0.608 I-0.3142 J0.6901
G1 X13.6814
X7.4596 Y0.6083
X3.3568 Y0.608
X1.4482
G2 X0.7258 Y1.1969 I-0.0043 J0.7322
X0.708 Y1.3769 I0.711 J0.1613
G1 Y9.5018
Y14.3077
G2 X0.9818 Y14.9129 I0.7722 J0.0152
X1.4482 Y15.0755 I0.4587 J-0.5658
G1 X16.5518
G2 X17.1054 Y14.827 I0.0095 J-0.7196
G1 X17.1254 Y14.8033
X17.144 Y14.7788 Z1.1498
X17.1619 Y14.7533 Z1.1496
X17.1787 Y14.7274 Z1.1493
X17.1944 Y14.7008 Z1.1489
X17.209 Y14.6735 Z1.1484
X17.2224 Y14.6455 Z1.1478
X17.2348 Y14.6169 Z1.1472
X17.2461 Y14.5878 Z1.1465
X17.2562 Y14.5584 Z1.1458
X17.2651 Y14.5286 Z1.1449
X17.2728 Y14.4984 Z1.1441
X17.2792 Y14.4679 Z1.1431
X17.2845 Y14.4371 Z1.1421
X17.2885 Y14.406 Z1.1411
X17.2913 Y14.3748 Z1.14
X17.2929 Y14.3435 Z1.1389
X17.2934 Y14.3122 Z1.1378
X17.2957 Y13.7767 Z1.1191
X17.2968 Y13.4932 Z1.1092
X17.297 Y13.4617 Z1.1081
X17.2971 Y13.4302 Z1.1071
X17.2972 Y13.3987 Z1.1062
X17.2973 Y13.3672 Z1.1053
X17.2974 Y13.3357 Z1.1044
X17.2975 Y13.3042 Z1.1036
X17.2976 Y13.2727 Z1.1029
Y13.2412 Z1.1023
X17.2977 Y13.2097 Z1.1017
X17.2978 Y13.1782 Z1.1012
Y13.1467 Z1.1008
X17.2979 Y13.1152 Z1.1004
Y13.0837 Z1.1002
Y13.0522 Z1.1001
Y13.0207 Z1.1
Y13.0187
Y9.0513
Y1.9326
Y1.3469
G2 X16.8979 Y0.6761 I-0.7538 J-0.0051
X16.5518 Y0.596 I-0.3381 J0.6726
G1 X10.0896
X7.4596 Y0.5961
X5.7313 Y0.596
X1.4482
G2 X0.7178 Y1.1969 I-0.0099 J0.7323
X0.7021 Y1.3481 I0.6538 J0.1442
G1 Y9.5919
Y14.3227
G2 X1.0322 Y14.9693 I0.7664 J0.0163
X1.4332 Y15.0903 I0.4036 J-0.6126
G1 X16.5668
G2 X17.2425 Y14.6228 I-0.0015 J-0.7242
X17.2979 Y14.3227 I-0.7105 J-0.2862
G1 Y13.0187
Y12.9872
Y12.9557 Z1.0998
X17.298 Y12.9242 Z1.0996
Y12.8927 Z1.0992
X17.2981 Y12.8612 Z1.0988
Y12.8297 Z1.0983
X17.2982 Y12.7982 Z1.0978
X17.2983 Y12.7667 Z1.0971
Y12.7352 Z1.0964
X17.2984 Y12.7037 Z1.0956
X17.2985 Y12.6722 Z1.0948
X17.2986 Y12.6407 Z1.0939
X17.2987 Y12.6092 Z1.0929
X17.2989 Y12.5777 Z1.0919
X17.299 Y12.5462 Z1.0909
X17.3003 Y12.2312 Z1.0799
X17.3004 Y12.1997 Z1.0788
X17.3025 Y11.6642 Z1.0601
X17.3027 Y11.6327 Z1.059
X17.3028 Y11.6012 Z1.0579
X17.3029 Y11.5697 Z1.0569
X17.303 Y11.5382 Z1.056
X17.3031 Y11.5067 Z1.0551
X17.3032 Y11.4752 Z1.0542
X17.3033 Y11.4437 Z1.0535
X17.3034 Y11.4122 Z1.0528
Y11.3807 Z1.0521
X17.3035 Y11.3492 Z1.0516
Y11.3177 Z1.0511
X17.3036 Y11.2862 Z1.0507
Y11.2547 Z1.0504
Y11.2232 Z1.0502
X17.3037 Y11.1917 Z1.05
Y11.1646
Y8.781
Y1.3469
G2 X16.8828 Y0.6542 I-0.7529 J-0.0168
X16.5668 Y0.584 I-0.3185 J0.6873
G1 X8.2711
X8.211
X7.8503
X6.9186
X1.4332
G2 X0.7073 Y1.2119 I0.0003 J0.7339
X0.6963 Y1.3469 I0.6638 J0.1217
G1 Y4.4707
Y9.5469
Y14.3377
G2 X1.0272 Y14.9842 I0.7674 J0.0151
X1.4332 Y15.1051 I0.4031 J-0.6114
G1 X16.5668
G2 X17.259 Y14.6078 I0.0036 J-0.7254
X17.3037 Y14.3377 I-0.7114 J-0.2564
G1 Y11.5593
Y11.1646
Y11.1331
Y11.1016 Z1.0498
Y11.0701 Z1.0496
X17.3038 Y11.0386 Z1.0492
Y11.0071 Z1.0488
X17.3039 Y10.9756 Z1.0483
Y10.9441 Z1.0478
X17.304 Y10.9126 Z1.0471
X17.3041 Y10.8811 Z1.0464
X17.3042 Y10.8496 Z1.0456
X17.3043 Y10.8181 Z1.0448
X17.3044 Y10.7866 Z1.0439
X17.3045 Y10.7552 Z1.0429
X17.3046 Y10.7236 Z1.0419
X17.3047 Y10.6921 Z1.0409
X17.3068 Y10.1567 Z1.0222
X17.3082 Y9.8102 Z1.0101
X17.3083 Y9.7787 Z1.009
X17.3084 Y9.7472 Z1.0079
X17.3085 Y9.7157 Z1.0069
X17.3086 Y9.6842 Z1.006
X17.3087 Y9.6527 Z1.0051
X17.3088 Y9.6212 Z1.0042
X17.3089 Y9.5897 Z1.0035
X17.309 Y9.5582 Z1.0028
X17.3091 Y9.5267 Z1.0021
Y9.4952 Z1.0016
X17.3092 Y9.4637 Z1.0011
Y9.4322 Z1.0007
X17.3093 Y9.4007 Z1.0004
Y9.3692 Z1.0002
Y9.3377 Z1.
Y9.3106
Y1.3319
X17.3092 Y1.3168
G2 X16.8076 Y0.6099 I-0.749 J0.0001
X16.5668 Y0.5724 I-0.2395 J0.746
G1 X11.8479
X11.7878
X9.6237 Y0.5726
X4.5441 Y0.5724
X1.4332
G2 X0.7077 Y1.1668 I-0.0051 J0.7337
X0.6907 Y1.3319 I0.6719 J0.1525
G1 Y9.637
Y14.3528
G2 X1.001 Y14.9843 I0.7712 J0.0131
X1.4332 Y15.1198 I0.424 J-0.5955
G1 X16.5668
G2 X17.2643 Y14.6228 I0.0083 J-0.7263
X17.3093 Y14.3528 I-0.7163 J-0.2579
G1 Y9.4267
Y9.3106
Y9.2791
Y9.2476 Z0.9998
X17.3094 Y9.2161 Z0.9996
Y9.1846 Z0.9992
Y9.1531 Z0.9988
X17.3095 Y9.1216 Z0.9983
X17.3096 Y9.0901 Z0.9978
Y9.0586 Z0.9971
X17.3097 Y9.0271 Z0.9964
X17.3098 Y8.9956 Z0.9956
X17.3099 Y8.9641 Z0.9948
X17.31 Y8.9326 Z0.9939
X17.3101 Y8.9011 Z0.9929
X17.3102 Y8.8696 Z0.9919
X17.3103 Y8.8381 Z0.9909
X17.3113 Y8.5861 Z0.9821
X17.3114 Y8.5546 Z0.981
X17.312 Y8.3971 Z0.9755
X17.3137 Y7.9561 Z0.9601
X17.3138 Y7.9246 Z0.959
X17.3139 Y7.8931 Z0.9579
X17.314 Y7.8616 Z0.9569
X17.3141 Y7.8301 Z0.956
X17.3142 Y7.7986 Z0.9551
X17.3143 Y7.7671 Z0.9542
X17.3144 Y7.7356 Z0.9535
X17.3145 Y7.7041 Z0.9528
Y7.6726 Z0.9521
X17.3146 Y7.6411 Z0.9516
X17.3147 Y7.6096 Z0.9511
Y7.5781 Z0.9507
Y7.5466 Z0.9504
X17.3148 Y7.5151 Z0.9502
Y7.4836 Z0.95
Y7.4566
Y1.3168
X17.3146 Y1.3018
G2 X16.8455 Y0.6101 I-0.7503 J0.0039
X16.5668 Y0.5607 I-0.271 J0.7178
G1 X15.4697
X15.4096
X11.4271 Y0.5611
X2.1395 Y0.5607
X1.4332
G2 X0.703 Y1.1518 I-0.0103 J0.7339
X0.6852 Y1.3168 I0.6777 J0.1563
G1 Y9.5769
Y14.3678
G2 X0.9818 Y14.9889 I0.7739 J0.0119
X1.4182 Y15.1346 I0.4376 J-0.5842
G1 X16.5818
G2 X17.2585 Y14.6678 I-0.0012 J-0.7255
X17.3148 Y14.3678 I-0.7067 J-0.2879
G1 Y8.7659
Y7.4566
Y7.4251
Y7.3936 Z0.9498
Y7.3621 Z0.9496
X17.3149 Y7.3306 Z0.9492
Y7.2991 Z0.9488
Y7.2676 Z0.9483
X17.315 Y7.2361 Z0.9478
X17.3151 Y7.2046 Z0.9471
X17.3152 Y7.1731 Z0.9464
Y7.1416 Z0.9456
X17.3153 Y7.1101 Z0.9448
X17.3154 Y7.0786 Z0.9439
X17.3155 Y7.0471 Z0.9429
X17.3156 Y7.0156 Z0.9419
X17.3157 Y6.9841 Z0.9409
X17.3178 Y6.4486 Z0.9222
X17.3191 Y6.1021 Z0.9101
X17.3192 Y6.0706 Z0.909
X17.3193 Y6.0391 Z0.9079
X17.3194 Y6.0076 Z0.9069
X17.3195 Y5.9761 Z0.906
X17.3196 Y5.9446 Z0.9051
X17.3197 Y5.9131 Z0.9042
X17.3198 Y5.8816 Z0.9035
Y5.8501 Z0.9028
X17.3199 Y5.8186 Z0.9021
X17.32 Y5.7871 Z0.9016
Y5.7556 Z0.9011
X17.3201 Y5.7241 Z0.9007
Y5.6926 Z0.9004
Y5.6611 Z0.9002
Y5.6296 Z0.9
Y5.6026
Y1.3168
Y1.3018
G2 X16.7925 Y0.5789 I-0.7492 J-0.0072
X16.5818 Y0.5494 I-0.2162 J0.7766
G1 X13.2004 Y0.5497
X5.4007 Y0.5494
X1.4182
G2 X0.6954 Y1.1518 I0.0001 J0.7349
X0.6799 Y1.3168 I0.7076 J0.1495
G1 Y9.0663
Y14.3828
G2 X1.013 Y15.0294 I0.7705 J0.0122
X1.4182 Y15.1493 I0.4023 J-0.6149
G1 X16.5818
G2 X17.2745 Y14.6528 I0.0032 J-0.7269
X17.3201 Y14.3828 I-0.7132 J-0.2593
G1 Y9.3066
Y5.6026
Y5.5711
X17.3202 Y5.5396 Z0.8998
Y5.5081 Z0.8996
Y5.4766 Z0.8992
X17.3203 Y5.4451 Z0.8988
Y5.4136 Z0.8983
X17.3204 Y5.3821 Z0.8978
Y5.3506 Z0.8971
X17.3205 Y5.3191 Z0.8964
X17.3206 Y5.2876 Z0.8956
X17.3207 Y5.2561 Z0.8948
X17.3208 Y5.2246 Z0.8939
X17.3209 Y5.1931 Z0.8929
X17.321 Y5.1616 Z0.8919
X17.3211 Y5.1301 Z0.8909
X17.3212 Y5.0986 Z0.8898
X17.3213 Y5.0671 Z0.8887
X17.3229 Y4.6261 Z0.8733
X17.3243 Y4.2481 Z0.8601
X17.3244 Y4.2166 Z0.859
X17.3245 Y4.1851 Z0.8579
X17.3246 Y4.1536 Z0.8569
X17.3247 Y4.1221 Z0.856
X17.3248 Y4.0906 Z0.8551
Y4.0591 Z0.8542
X17.3249 Y4.0276 Z0.8535
X17.325 Y3.9961 Z0.8528
X17.3251 Y3.9646 Z0.8521
Y3.9331 Z0.8516
X17.3252 Y3.9016 Z0.8511
Y3.8701 Z0.8507
Y3.8386 Z0.8504
X17.3253 Y3.8071 Z0.8502
Y3.7756 Z0.85
Y3.7486
Y1.3018
G2 X16.8356 Y0.58 I-0.7514 J-0.0172
X16.5818 Y0.538 I-0.2525 J0.7375
G1 X14.9888 Y0.5382
X11.3369 Y0.538
X11.2167
X1.4182
G2 X0.691 Y1.1368 I-0.0048 J0.7351
X0.6747 Y1.3018 I0.6691 J0.1492
G1 Y9.5469
Y12.7458
Y14.3978
G2 X1.0321 Y15.0594 I0.7676 J0.0127
X1.4182 Y15.1641 I0.3787 J-0.6326
G1 X16.5818
G2 X17.2683 Y14.6978 I0.008 J-0.7266
X17.3253 Y14.3978 I-0.7062 J-0.2896
G1 Y11.7245
Y8.9462
Y3.7486
Y3.7171
Y3.6856 Z0.8498
Y3.6541 Z0.8496
X17.3254 Y3.6226 Z0.8492
Y3.5911 Z0.8488
X17.3255 Y3.5596 Z0.8483
Y3.5281 Z0.8478
X17.3256 Y3.4966 Z0.8471
Y3.4651 Z0.8464
X17.3257 Y3.4336 Z0.8456
X17.3258 Y3.4021 Z0.8448
X17.3259 Y3.3706 Z0.8439
X17.326 Y3.3391 Z0.8429
X17.3261 Y3.3076 Z0.8419
X17.3262 Y3.2761 Z0.8409
X17.3281 Y2.7406 Z0.8222
X17.3293 Y2.3941 Z0.8101
X17.3295 Y2.3626 Z0.809
X17.3296 Y2.3311 Z0.8079
X17.3297 Y2.2996 Z0.8069
X17.3298 Y2.2681 Z0.806
X17.3299 Y2.2366 Z0.8051
Y2.2051 Z0.8042
X17.33 Y2.1736 Z0.8035
X17.3301 Y2.1421 Z0.8028
X17.3302 Y2.1106 Z0.8021
Y2.0791 Z0.8016
X17.3303 Y2.0476 Z0.8011
Y2.0161 Z0.8007
Y1.9846 Z0.8004
X17.3304 Y1.9531 Z0.8002
Y1.9216 Z0.8
Y1.8946
Y1.2868
G2 X16.627 Y0.5267 I-0.7472 J-0.014
G1 X16.6119 Y0.5271
X16.5969 Y0.5267
X16.5818
X1.4182
G2 X0.671 Y1.2568 I-0.0052 J0.742
G1 X0.6697 Y1.2718
X0.6696 Y1.2868
Y9.5169
Y14.4128
G2 X1.0041 Y15.0594 I0.771 J0.011
X1.4031 Y15.1789 I0.4014 J-0.6142
G1 X16.5969
G2 X17.273 Y14.7129 I-0.0022 J-0.7268
X17.3304 Y14.4128 I-0.7087 J-0.291
G1 Y9.1564
Y1.8946
Y1.8631
Y1.8316 Z0.7998
Y1.8001 Z0.7996
Y1.7686 Z0.7992
X17.3305 Y1.7371 Z0.7988
Y1.7056 Z0.7983
X17.3306 Y1.6741 Z0.7978
X17.3307 Y1.6426 Z0.7971
Y1.6111 Z0.7964
X17.3308 Y1.5796 Z0.7956
X17.3309 Y1.5481 Z0.7948
X17.331 Y1.5166 Z0.7939
X17.3311 Y1.4851 Z0.7929
X17.3312 Y1.4536 Z0.7919
X17.3313 Y1.4221 Z0.7909
X17.3317 Y1.2961 Z0.7865
X17.3316 Y1.2646 Z0.7854
X17.3307 Y1.2332 Z0.7843
X17.3286 Y1.2019 Z0.7832
X17.3251 Y1.1708 Z0.7821
X17.3203 Y1.1398 Z0.781
X17.3143 Y1.109 Z0.7799
X17.3069 Y1.0785 Z0.7788
X17.2983 Y1.0483 Z0.7777
X17.2884 Y1.0185 Z0.7766
X17.2773 Y0.9891 Z0.7755
X17.2648 Y0.9603 Z0.7744
X17.2512 Y0.932 Z0.7733
X17.2364 Y0.9043 Z0.7722
X17.2204 Y0.8773 Z0.7711
X17.2034 Y0.8509 Z0.77
X17.1852 Y0.8252 Z0.7689
X17.1661 Y0.8003 Z0.7678
X17.1458 Y0.7762 Z0.7667
X17.1245 Y0.7531 Z0.7656
X17.1022 Y0.7309 Z0.7645
X17.0791 Y0.7096 Z0.7634
X17.055 Y0.6892 Z0.7623
X17.0302 Y0.6699 Z0.7612
X17.0046 Y0.6516 Z0.7601
X16.9782 Y0.6345 Z0.759
X16.9511 Y0.6184 Z0.758
X16.9233 Y0.6036 Z0.757
X16.895 Y0.5899 Z0.756
X16.8661 Y0.5775 Z0.7551
X16.8367 Y0.5662 Z0.7543
X16.8068 Y0.5561 Z0.7535
X16.7766 Y0.5473 Z0.7528
X16.746 Y0.5398 Z0.7522
X16.7151 Y0.5336 Z0.7516
X16.684 Y0.5287 Z0.7511
X16.6527 Y0.5251 Z0.7507
X16.6213 Y0.5228 Z0.7504
X16.5898 Y0.5217 Z0.7502
X16.5583 Y0.5216 Z0.75
X16.529
X1.4182
G2 X0.6648 Y1.2718 I-0.0013 J0.7521
G1 Y3.5696
Y9.3366
Y14.4278
G2 X1.0269 Y15.0913 I0.7687 J0.011
X1.4031 Y15.1936 I0.3749 J-0.6354
G1 X16.5969
G2 X17.2775 Y14.7279 I0.002 J-0.7273
X17.3352 Y14.4278 I-0.708 J-0.2918
G1 Y9.2465
Y3.4344
Y1.2718
G2 X16.5818 Y0.5221 I-0.7512 J0.0015
G1 X16.529 Y0.5216
X16.4975
X16.466 Z0.7498
X16.4345 Z0.7496
X16.403 Z0.7492
X16.3715 Z0.7488
X16.34 Z0.7483
X16.3085 Z0.7478
X16.277 Z0.7471
X16.2455 Z0.7464
X16.214 Z0.7456
X16.1825 Z0.7448
X16.151 Z0.7439
X16.1195 Z0.7429
X16.088 Z0.7419
X16.0565 Z0.7409
X15.4895 Z0.7211
X15.1745 Z0.7101
X15.143 Z0.709
X15.1115 Z0.7079
X15.08 Z0.7069
X15.0485 Z0.706
X15.017 Z0.7051
X14.9855 Z0.7042
X14.954 Z0.7035
X14.9225 Z0.7028
X14.891 Z0.7021
X14.8595 Z0.7016
X14.828 Z0.7011
X14.7965 Z0.7007
X14.765 Z0.7004
X14.7335 Z0.7002
X14.702 Z0.7
X14.675
X1.4182
G2 X0.66 Y1.2718 I-0.0061 J0.752
G1 Y9.4568
Y14.4429
G2 X0.9818 Y15.0795 I0.7731 J0.0089
X1.4031 Y15.2084 I0.4152 J-0.6038
G1 X16.5969
G2 X17.2818 Y14.7429 I0.0061 J-0.7278
X17.34 Y14.4429 I-0.7042 J-0.2921
G1 Y9.1564
Y1.2718
G2 X16.5818 Y0.5216 I-0.7521 J0.0019
G1 X14.675
X14.6435
X14.612 Z0.6998
X14.5805 Z0.6996
X14.549 Z0.6992
X14.5175 Z0.6988
X14.486 Z0.6983
X14.4545 Z0.6978
X14.423 Z0.6971
X14.3915 Z0.6964
X14.36 Z0.6956
X14.3285 Z0.6948
X14.297 Z0.6939
X14.2655 Z0.6929
X14.234 Z0.6919
X14.2025 Z0.6909
X13.6355 Z0.6711
X13.3205 Z0.6601
X13.289 Z0.659
X13.2575 Z0.6579
X13.226 Z0.6569
X13.1945 Z0.656
X13.163 Z0.6551
X13.1315 Z0.6542
X13.1 Z0.6535
X13.0685 Z0.6528
X13.037 Z0.6521
X13.0055 Z0.6516
X12.974 Z0.6511
X12.9425 Z0.6507
X12.911 Z0.6504
X12.8795 Z0.6502
X12.848 Z0.65
X12.821
X1.4182
G2 X0.6555 Y1.2718 I-0.0107 J0.7519
G1 Y9.3216
Y14.4429
G2 X0.9818 Y15.0971 I0.7748 J0.0221
X1.4031 Y15.2231 I0.4115 J-0.6088
G1 X16.5969
G2 X17.2873 Y14.7549 I0.0099 J-0.7287
X17.3445 Y14.4429 I-0.7175 J-0.2927
G1 Y9.1564
Y1.2718
G2 X16.5818 Y0.5216 I-0.752 J0.0018
G1 X12.821
X12.7895
X12.758 Z0.6498
X12.7265 Z0.6496
X12.695 Z0.6492
X12.6635 Z0.6488
X12.632 Z0.6483
X12.6005 Z0.6478
X12.569 Z0.6471
X12.5375 Z0.6464
X12.506 Z0.6456
X12.4745 Z0.6448
X12.443 Z0.6439
X12.4115 Z0.6429
X12.38 Z0.6419
X12.3485 Z0.6409
X11.7815 Z0.6211
X11.4665 Z0.6101
X11.435 Z0.609
X11.4035 Z0.6079
X11.372 Z0.6069
X11.3405 Z0.606
X11.309 Z0.6051
X11.2775 Z0.6042
X11.246 Z0.6035
X11.2145 Z0.6028
X11.183 Z0.6021
X11.1515 Z0.6016
X11.12 Z0.6011
X11.0885 Z0.6007
X11.057 Z0.6004
X11.0255 Z0.6002
X10.994 Z0.6
X10.9669
X1.4182
G2 X0.6511 Y1.2718 I-0.0149 J0.7521
G1 Y9.4418
X0.651 Y14.4729
G2 X1.0129 Y15.1345 I0.7707 J0.0082
X1.3881 Y15.2379 I0.3764 J-0.6332
G1 X16.6119
G2 X17.2902 Y14.7729 I-0.0013 J-0.7292
X17.349 Y14.4729 I-0.7098 J-0.2947
G1 X17.3489 Y9.1564
Y1.2718
G2 X16.5818 Y0.5216 I-0.7522 J0.0019
G1 X10.9669
X10.9354
X10.9039 Z0.5998
X10.8724 Z0.5996
X10.8409 Z0.5992
X10.8094 Z0.5988
X10.7779 Z0.5983
X10.7464 Z0.5978
X10.7149 Z0.5971
X10.6834 Z0.5964
X10.6519 Z0.5956
X10.6204 Z0.5948
X10.5889 Z0.5939
X10.5574 Z0.5929
X10.5259 Z0.5919
X10.4944 Z0.5909
X9.9274 Z0.5711
X9.6124 Z0.5601
X9.5809 Z0.559
X9.5494 Z0.5579
X9.5179 Z0.5569
X9.4864 Z0.556
X9.4549 Z0.5551
X9.4234 Z0.5542
X9.3919 Z0.5535
X9.3604 Z0.5528
X9.3289 Z0.5521
X9.2974 Z0.5516
X9.2659 Z0.5511
X9.2344 Z0.5507
X9.2029 Z0.5504
X9.1714 Z0.5502
X9.1399 Z0.55
X9.1129
X1.4031
G2 X0.6468 Y1.2718 I-0.0047 J0.7517
G1 Y9.4418
Y14.4879
G2 X1.0119 Y15.1512 I0.772 J0.0071
X1.3881 Y15.2528 I0.3738 J-0.637
G1 X16.6119
G2 X17.2941 Y14.7879 I0.0026 J-0.7293
X17.3532 Y14.4879 I-0.7029 J-0.2943
G1 Y9.5018
Y1.2718
G2 X16.5969 Y0.5216 I-0.7517 J0.0016
G1 X9.1129
X9.0814
X9.0499 Z0.5498
X9.0184 Z0.5496
X8.9869 Z0.5492
X8.9554 Z0.5488
X8.9239 Z0.5483
X8.8924 Z0.5478
X8.8609 Z0.5471
X8.8294 Z0.5464
X8.7979 Z0.5456
X8.7664 Z0.5448
X8.7349 Z0.5439
X8.7034 Z0.5429
X8.6719 Z0.5419
X8.6404 Z0.5409
X8.0734 Z0.5211
X7.7584 Z0.5101
X7.7269 Z0.509
X7.6954 Z0.5079
X7.6639 Z0.5069
X7.6324 Z0.506
X7.6009 Z0.5051
X7.5694 Z0.5042
X7.5379 Z0.5035
X7.5064 Z0.5028
X7.4749 Z0.5021
X7.4434 Z0.5016
X7.4119 Z0.5011
X7.3804 Z0.5007
X7.3489 Z0.5004
X7.3174 Z0.5002
X7.2859 Z0.5
X7.2589
X1.4031
G2 X0.6427 Y1.2718 I-0.0088 J0.7516
G1 Y9.4718
Y14.5029
G2 X1.0119 Y15.1679 I0.772 J0.0064
X1.3881 Y15.2675 I0.3709 J-0.6408
G1 X16.6119
G2 X17.2979 Y14.803 I0.0057 J-0.7304
X17.3573 Y14.5029 I-0.7093 J-0.2964
G1 Y9.1114
Y1.2718
G2 X16.5969 Y0.5216 I-0.7516 J0.0014
G1 X7.2589
X7.2274
X7.1959 Z0.4998
X7.1644 Z0.4996
X7.1329 Z0.4992
X7.1014 Z0.4988
X7.0699 Z0.4983
X7.0384 Z0.4978
X7.0069 Z0.4971
X6.9754 Z0.4964
X6.9439 Z0.4956
X6.9124 Z0.4948
X6.8809 Z0.4939
X6.8494 Z0.4929
X6.8179 Z0.4919
X6.7864 Z0.4909
X6.2194 Z0.4711
X5.9044 Z0.4601
X5.8729 Z0.459
X5.8414 Z0.4579
X5.8099 Z0.4569
X5.7784 Z0.456
X5.7469 Z0.4551
X5.7154 Z0.4542
X5.6839 Z0.4535
X5.6524 Z0.4528
X5.6209 Z0.4521
X5.5894 Z0.4516
X5.5579 Z0.4511
X5.5264 Z0.4507
X5.4949 Z0.4504
X5.4634 Z0.4502
X5.4319 Z0.45
X5.4048
X1.4031
G2 X0.6387 Y1.2718 I-0.0126 J0.7517
G1 Y9.4718
Y14.518
G2 X1.0119 Y15.1847 I0.7732 J0.005
X1.2528 Y15.2719 I0.3819 J-0.679
X1.3881 Y15.2822 I0.1248 J-0.7418
G1 X16.6119
G2 X17.3023 Y14.8159 I0.0086 J-0.7315
X17.3613 Y14.518 I-0.7054 J-0.2945
G1 Y9.4117
Y1.2718
G2 X16.5969 Y0.5216 I-0.7518 J0.0016
G1 X5.4048
X5.3733
X5.3418 Z0.4498
X5.3103 Z0.4496
X5.2788 Z0.4492
X5.2473 Z0.4488
X5.2158 Z0.4483
X5.1843 Z0.4478
X5.1528 Z0.4471
X5.1213 Z0.4464
X5.0898 Z0.4456
X5.0583 Z0.4448
X5.0268 Z0.4439
X4.9953 Z0.4429
X4.9638 Z0.4419
X4.9323 Z0.4409
X4.3654 Z0.4211
X4.0504 Z0.4101
X4.0189 Z0.409
X3.9874 Z0.4079
X3.9559 Z0.4069
X3.9244 Z0.406
X3.8929 Z0.4051
X3.8614 Z0.4042
X3.8299 Z0.4035
X3.7984 Z0.4028
X3.7669 Z0.4021
X3.7354 Z0.4016
X3.7039 Z0.4011
X3.6724 Z0.4007
X3.6409 Z0.4004
X3.6094 Z0.4002
X3.5779 Z0.4
X3.5508
X1.3881
G2 X0.6349 Y1.2868 I-0.0018 J0.7515
G1 Y9.607
Y14.518
G2 X0.9543 Y15.1645 I0.7802 J0.0168
X1.1266 Y15.254 I0.4646 J-0.6836
X1.3731 Y15.2971 I0.2486 J-0.6966
G1 X16.6269
G2 X17.3108 Y14.818 I-0.003 J-0.732
X17.3651 Y14.518 I-0.7152 J-0.2844
G1 Y11.5443
Y8.9311
Y1.2868
G2 X16.6119 Y0.5216 I-0.7514 J-0.0137
G1 X3.5508
X3.5193
X3.4878 Z0.3998
X3.4563 Z0.3996
X3.4248 Z0.3992
X3.3933 Z0.3988
X3.3618 Z0.3983
X3.3303 Z0.3978
X3.2988 Z0.3971
X3.2673 Z0.3964
X3.2358 Z0.3956
X3.2043 Z0.3948
X3.1728 Z0.3939
X3.1413 Z0.3929
X3.1098 Z0.3919
X3.0783 Z0.3909
X2.5113 Z0.3711
X2.1963 Z0.3601
X2.1648 Z0.359
X2.1333 Z0.3579
X2.1018 Z0.3569
X2.0703 Z0.356
X2.0388 Z0.3551
X2.0073 Z0.3542
X1.9758 Z0.3535
X1.9443 Z0.3528
X1.9128 Z0.3521
X1.8813 Z0.3516
X1.8498 Z0.3511
X1.8183 Z0.3507
X1.7868 Z0.3504
X1.7553 Z0.3502
X1.7238 Z0.35
X1.6968
X1.3881
G2 X0.6313 Y1.2718 I-0.0053 J0.7515
G1 Y10.433
Y14.533
G2 X0.9975 Y15.2095 I0.7771 J0.0167
X1.2528 Y15.3024 I0.3855 J-0.6623
X1.3731 Y15.3117 I0.1192 J-0.7579
G1 X16.6269
G2 X17.3082 Y14.8481 I0.0003 J-0.7319
X17.3687 Y14.533 I-0.7223 J-0.3022
G1 Y1.2718
G2 X16.6119 Y0.5216 I-0.7515 J0.0014
G1 X1.6968
X1.6653
X1.6338 Z0.3498
X1.6023 Z0.3496
X1.5708 Z0.3492
X1.5393 Z0.3488
X1.5078 Z0.3483
X1.4763 Z0.3478
X1.4448 Z0.3471
X1.4133 Z0.3464
X1.3818 Z0.3456
X1.3503 Y0.5223 Z0.3448
X1.3189 Y0.5244 Z0.3439
X1.2876 Y0.5277 Z0.3429
X1.2564 Y0.5324 Z0.3419
X1.2255 Y0.5383 Z0.3409
X1.1949 Y0.5455 Z0.3398
X1.1646 Y0.554 Z0.3387
X1.1346 Y0.5636 Z0.3376
X1.1051 Y0.5745 Z0.3365
X1.0761 Y0.5867 Z0.3354
X1.0476 Y0.6001 Z0.3343
X1.0197 Y0.6146 Z0.3332
X0.9925 Y0.6303 Z0.3321
X0.9658 Y0.647 Z0.331
X0.94 Y0.6649 Z0.3299
X0.9149 Y0.684 Z0.3288
X0.8906 Y0.7038 Z0.3277
X0.8672 Y0.7249 Z0.3266
X0.8446 Y0.7467 Z0.3255
X0.8231 Y0.7697 Z0.3244
X0.8023 Y0.7932 Z0.3233
X0.7829 Y0.818 Z0.3222
X0.7642 Y0.8432 Z0.3211
X0.7468 Y0.8695 Z0.32
X0.7302 Y0.8962 Z0.3189
X0.7152 Y0.9238 Z0.3178
X0.7009 Y0.9518 Z0.3167
X0.6882 Y0.9806 Z0.3156
X0.6763 Y1.0097 Z0.3145
X0.6661 Y1.0395 Z0.3134
X0.6566 Y1.0695 Z0.3123
X0.6489 Y1.1 Z0.3112
X0.6421 Y1.1307 Z0.3101
X0.6369 Y1.1617 Z0.309
X0.6327 Y1.193 Z0.308
X0.6301 Y1.2243 Z0.307
X0.6286 Y1.2558 Z0.306
X0.6282 Y1.2872 Z0.3051
X0.6281 Y1.3187 Z0.3043
Y1.3502 Z0.3035
X0.628 Y1.3817 Z0.3028
Y1.4132 Z0.3022
X0.6279 Y1.4447 Z0.3016
Y1.4762 Z0.3011
Y1.5077 Z0.3007
Y1.5392 Z0.3004
X0.6278 Y1.5707 Z0.3002
Y1.6022 Z0.3
Y1.6307
Y14.548
X0.6279 Y14.563
G2 X0.9969 Y15.2261 I0.7761 J0.0022
X1.2311 Y15.314 I0.386 J-0.6718
X1.3731 Y15.3266 I0.1354 J-0.7209
G1 X16.6269
G2 X17.3114 Y14.8631 I0.0036 J-0.7318
X17.3722 Y14.548 I-0.7172 J-0.3018
G1 Y1.2718
G2 X16.6119 Y0.5216 I-0.7516 J0.0014
G1 X1.3881
G2 X0.6278 Y1.2718 I-0.0087 J0.7515
G1 Y1.6307
Y1.6622
Y1.6937 Z0.2998
Y1.7252 Z0.2996
Y1.7567 Z0.2992
X0.6277 Y1.7882 Z0.2988
Y1.8197 Z0.2983
Y1.8512 Z0.2978
X0.6276 Y1.8827 Z0.2971
Y1.9142 Z0.2964
X0.6275 Y1.9457 Z0.2956
Y1.9772 Z0.2948
X0.6274 Y2.0087 Z0.2939
X0.6273 Y2.0402 Z0.2929
Y2.0717 Z0.2919
X0.6272 Y2.1032 Z0.2909
X0.6259 Y2.6387 Z0.2722
X0.6256 Y2.7962 Z0.2667
X0.6251 Y2.9852 Z0.2601
Y3.0167 Z0.259
X0.625 Y3.0482 Z0.2579
X0.6249 Y3.0797 Z0.2569
Y3.1112 Z0.256
X0.6248 Y3.1427 Z0.2551
X0.6247 Y3.1742 Z0.2542
Y3.2057 Z0.2535
X0.6246 Y3.2372 Z0.2528
Y3.2687 Z0.2521
Y3.3002 Z0.2516
X0.6245 Y3.3317 Z0.2511
Y3.3632 Z0.2507
Y3.3947 Z0.2504
Y3.4262 Z0.2502
Y3.4577 Z0.25
Y3.4848
Y14.563
G2 X0.9458 Y15.2095 I0.7815 J0.0147
X1.1026 Y15.2927 I0.4715 J-0.6994
X1.3731 Y15.3413 I0.2621 J-0.6824
G1 X16.6269
G2 X17.3144 Y14.8781 I0.0069 J-0.7317
X17.3755 Y14.563 I-0.7156 J-0.3021
G1 Y1.2718
G2 X16.6119 Y0.5216 I-0.7516 J0.0013
G1 X1.3881
G2 X0.6245 Y1.2718 I-0.012 J0.7515
G1 Y3.4848
Y3.5163
Y3.5478 Z0.2498
X0.6244 Y3.5793 Z0.2496
Y3.6108 Z0.2492
Y3.6423 Z0.2488
Y3.6738 Z0.2483
X0.6243 Y3.7053 Z0.2478
Y3.7368 Z0.2471
X0.6242 Y3.7683 Z0.2464
Y3.7998 Z0.2456
X0.6241 Y3.8313 Z0.2448
Y3.8628 Z0.2439
X0.624 Y3.8943 Z0.2429
X0.6239 Y3.9258 Z0.2419
Y3.9573 Z0.2409
X0.6227 Y4.4928 Z0.2222
X0.6219 Y4.8393 Z0.2101
X0.6218 Y4.8708 Z0.209
X0.6217 Y4.9023 Z0.2079
Y4.9338 Z0.2069
X0.6216 Y4.9653 Z0.206
X0.6215 Y4.9968 Z0.2051
Y5.0283 Z0.2042
X0.6214 Y5.0598 Z0.2035
Y5.0913 Z0.2028
X0.6213 Y5.1228 Z0.2021
Y5.1543 Z0.2016
Y5.1858 Z0.2011
X0.6212 Y5.2173 Z0.2007
Y5.2488 Z0.2004
Y5.2803 Z0.2002
Y5.3118 Z0.2
Y5.3388
Y14.578
G2 X0.9427 Y15.2246 I0.7814 J0.0147
X1.2979 Y15.3538 I0.4244 J-0.6139
X1.3731 Y15.3561 I0.0825 J-1.422
G1 X16.6269
G2 X17.3175 Y14.8936 I0.01 J-0.7317
X17.3788 Y14.578 I-0.7154 J-0.3028
G1 Y1.2718
G2 X16.6269 Y0.5216 I-0.7513 J0.0012
G1 X1.3731
G2 X0.6212 Y1.2718 I-0.0006 J0.7513
G1 Y5.3388
Y5.3703
Y5.4018 Z0.1998
Y5.4333 Z0.1996
Y5.4648 Z0.1992
X0.6211 Y5.4963 Z0.1988
Y5.5278 Z0.1983
Y5.5593 Z0.1978
X0.621 Y5.5908 Z0.1971
Y5.6223 Z0.1964
X0.6209 Y5.6538 Z0.1956
Y5.6853 Z0.1948
X0.6208 Y5.7168 Z0.1939
X0.6207 Y5.7483 Z0.1929
Y5.7798 Z0.1919
X0.6206 Y5.8113 Z0.1909
X0.6194 Y6.3468 Z0.1722
X0.6186 Y6.6933 Z0.1601
X0.6185 Y6.7248 Z0.159
Y6.7563 Z0.1579
X0.6184 Y6.7878 Z0.1569
X0.6183 Y6.8193 Z0.156
Y6.8508 Z0.1551
X0.6182 Y6.8823 Z0.1542
Y6.9138 Z0.1535
X0.6181 Y6.9453 Z0.1528
Y6.9768 Z0.1521
X0.618 Y7.0083 Z0.1516
Y7.0398 Z0.1511
Y7.0713 Z0.1507
Y7.1028 Z0.1504
X0.6179 Y7.1343 Z0.1502
Y7.1658 Z0.15
Y7.1928
Y14.593
G2 X0.9398 Y15.2396 I0.7812 J0.0145
X1.3581 Y15.3709 I0.4192 J-0.6033
G1 X16.6419
G2 X17.3174 Y14.9166 I-0.0015 J-0.7314
X17.3821 Y14.593 I-0.7188 J-0.3119
G1 Y1.2718
G2 X16.6269 Y0.5216 I-0.7514 J0.0012
G1 X1.3731
G2 X0.6179 Y1.2718 I-0.0038 J0.7514
G1 Y7.1928
Y7.2243
Y7.2558 Z0.1498
Y7.2873 Z0.1496
Y7.3188 Z0.1492
Y7.3503 Z0.1488
X0.6178 Y7.3818 Z0.1483
Y7.4133 Z0.1478
Y7.4448 Z0.1471
X0.6177 Y7.4763 Z0.1464
Y7.5078 Z0.1456
X0.6176 Y7.5393 Z0.1448
X0.6175 Y7.5708 Z0.1439
Y7.6023 Z0.1429
X0.6174 Y7.6338 Z0.1419
X0.6173 Y7.6653 Z0.1409
X0.6161 Y8.2008 Z0.1222
X0.6153 Y8.5473 Z0.1101
Y8.5788 Z0.109
X0.6152 Y8.6103 Z0.1079
X0.6151 Y8.6418 Z0.1069
Y8.6733 Z0.106
X0.615 Y8.7048 Z0.1051
Y8.7363 Z0.1042
X0.6149 Y8.7678 Z0.1035
Y8.7993 Z0.1028
X0.6148 Y8.8308 Z0.1021
Y8.8623 Z0.1016
X0.6147 Y8.8938 Z0.1011
Y8.9253 Z0.1007
Y8.9568 Z0.1004
Y8.9883 Z0.1002
Y9.0198 Z0.1
Y9.0468
Y14.6081
G2 X0.9367 Y15.2544 I0.781 J0.0143
X1.3581 Y15.3857 I0.419 J-0.6031
G1 X16.6419
G2 X17.3241 Y14.9232 I0.0016 J-0.7319
X17.3853 Y14.6081 I-0.72 J-0.3035
G1 Y1.2718
G2 X16.6269 Y0.5216 I-0.7515 J0.0013
G1 X1.3731
G2 X0.6147 Y1.2718 I-0.0069 J0.7515
G1 Y9.0468
Y9.0783
Y9.1098 Z0.0998
X0.6146 Y9.1413 Z0.0996
Y9.1728 Z0.0992
Y9.2043 Z0.0988
Y9.2358 Z0.0983
X0.6145 Y9.2673 Z0.0978
Y9.2988 Z0.0971
X0.6144 Y9.3303 Z0.0964
Y9.3618 Z0.0956
X0.6143 Y9.3933 Z0.0948
Y9.4248 Z0.0939
X0.6142 Y9.4563 Z0.0929
X0.6141 Y9.4878 Z0.0919
Y9.5193 Z0.0909
X0.6129 Y10.0548 Z0.0722
X0.6121 Y10.4013 Z0.0601
X0.612 Y10.4328 Z0.059
X0.6119 Y10.4643 Z0.0579
Y10.4958 Z0.0569
X0.6118 Y10.5273 Z0.056
X0.6117 Y10.5588 Z0.0551
Y10.5903 Z0.0542
X0.6116 Y10.6218 Z0.0535
Y10.6533 Z0.0528
X0.6115 Y10.6848 Z0.0521
Y10.7163 Z0.0516
Y10.7478 Z0.0511
Y10.7793 Z0.0507
X0.6114 Y10.8108 Z0.0504
Y10.8423 Z0.0502
Y10.8738 Z0.05
Y10.9009
Y14.6231
G2 X0.9341 Y15.2696 I0.7811 J0.014
X1.3581 Y15.4004 I0.4186 J-0.6042
G1 X16.6419
G2 X17.3272 Y14.9382 I0.0049 J-0.7317
X17.3886 Y14.6231 I-0.7165 J-0.3032
G1 Y1.2718
G2 X16.6269 Y0.5216 I-0.7515 J0.0013
G1 X1.3731
G2 X0.6114 Y1.2718 I-0.0102 J0.7514
G1 Y10.9009
Y10.9324
Y10.9639 Z0.0498
Y10.9954 Z0.0496
Y11.0269 Z0.0492
X0.6113 Y11.0584 Z0.0488
Y11.0899 Z0.0483
Y11.1214 Z0.0478
X0.6112 Y11.1529 Z0.0471
Y11.1844 Z0.0464
X0.6111 Y11.2159 Z0.0456
Y11.2474 Z0.0448
X0.611 Y11.2789 Z0.0439
X0.6109 Y11.3104 Z0.0429
Y11.3419 Z0.0419
X0.6108 Y11.3734 Z0.0409
X0.6096 Y11.9089 Z0.0222
X0.6088 Y12.2554 Z0.0101
X0.6087 Y12.2869 Z0.009
Y12.3184 Z0.0079
X0.6086 Y12.3499 Z0.0069
X0.6085 Y12.3814 Z0.006
Y12.4129 Z0.0051
X0.6084 Y12.4444 Z0.0042
Y12.4759 Z0.0035
X0.6083 Y12.5074 Z0.0028
Y12.5389 Z0.0021
X0.6082 Y12.5704 Z0.0016
Y12.6019 Z0.0011
Y12.6334 Z0.0007
Y12.6649 Z0.0004
Y12.6964 Z0.0002
X0.6081 Y12.7279 Z0.
X0.6082 Y12.7549
Y14.6381
G2 X0.9314 Y15.2847 I0.7807 J0.0138
X1.3581 Y15.4151 I0.4182 J-0.605
G1 X16.6419
G2 X17.3173 Y14.9827 I0.0086 J-0.7302
X17.3913 Y14.6531 I-0.6885 J-0.3276
G1 X17.3918 Y14.6381
Y1.2718
G2 X16.6269 Y0.5216 I-0.7515 J0.0013
G1 X1.3731
G2 X0.6082 Y1.2718 I-0.0134 J0.7514
G1 Y12.7549
X0.6081 Y12.7864
Y12.8179 Z-0.0002
Y12.8494 Z-0.0004
Y12.8809 Z-0.0008
Y12.9124 Z-0.0012
X0.608 Y12.9439 Z-0.0017
Y12.9754 Z-0.0022
Y13.0069 Z-0.0029
X0.6079 Y13.0384 Z-0.0036
Y13.0699 Z-0.0044
X0.6078 Y13.1014 Z-0.0052
X0.6077 Y13.1329 Z-0.0061
Y13.1644 Z-0.0071
X0.6076 Y13.1959 Z-0.0081
X0.6075 Y13.2274 Z-0.0091
X0.6063 Y13.7629 Z-0.0278
X0.6055 Y14.1094 Z-0.0399
Y14.1409 Z-0.041
X0.6054 Y14.1724 Z-0.0421
X0.6053 Y14.2039 Z-0.0431
Y14.2354 Z-0.044
X0.6052 Y14.2669 Z-0.0449
Y14.2984 Z-0.0458
X0.6051 Y14.3299 Z-0.0465
Y14.3614 Z-0.0472
X0.605 Y14.3929 Z-0.0479
Y14.4244 Z-0.0484
Y14.4559 Z-0.0489
X0.6049 Y14.4874 Z-0.0493
Y14.5189 Z-0.0496
Y14.5504 Z-0.0498
Y14.5819 Z-0.05
Y14.6089
G2 X0.6714 Y14.9837 I0.8584 J0.0409
X1.1625 Y15.4076 I0.6859 J-0.2982
X1.343 Y15.43 I0.191 J-0.8004
G1 X16.657
G2 X17.3026 Y15.0345 I-0.0026 J-0.7289
X17.3951 Y14.6531 I-0.694 J-0.3703
G1 Y1.2718
G2 X16.6419 Y0.5216 I-0.7513 J0.0012
G1 X1.3581
G2 X0.6049 Y1.2718 I-0.0018 J0.7513
G1 Y14.6089
G3 X0.5549 Y14.6589 I-0.05 J0.
G18 G3 X0.5049 Z0. I0. K0.05
G0 Z2.6
G17

G28 G91 Z0.
G90
G28 G91 X0. Y0.
G90
M30
