(BANANA 2)
(T3  D=0.5 CR=0.25 - ZMIN=-0.05 - BALL END MILL)
G90 G94 G91.1 G40 G49 G17
G20
G28 G91 Z0.
G90

(2D CONTOUR2)
M5
T3 M6
S18000 M3
G54
G0 X9.0141 Y6.4763
G43 Z2.6 H3
Z2.2
G1 Z0.95 F13.3
X9.0144 Y6.4764 Z0.9444 F120.
X9.0153 Y6.4767 Z0.9389
X9.0168 Y6.4771 Z0.9335
X9.0188 Y6.4777 Z0.9283
X9.0214 Y6.4785 Z0.9234
X9.0246 Y6.4794 Z0.9188
X9.0281 Y6.4804 Z0.9146
X9.0321 Y6.4816 Z0.9109
X9.0365 Y6.4829 Z0.9077
X9.0412 Y6.4843 Z0.905
X9.0462 Y6.4858 Z0.9028
X9.0514 Y6.4873 Z0.9013
X9.0567 Y6.4888 Z0.9003
X9.0621 Y6.4904 Z0.9
X9.11 Y6.5045
G3 X9.1439 Y6.5666 I-0.0141 J0.048
X8.8561 Y6.482 I-0.1439 J-0.0423
X9.1439 Y6.5666 I0.1439 J0.0423
X9.0819 Y6.6004 I-0.048 J-0.0141
G1 X9.0339 Y6.5864
X9.0285 Y6.5848 Z0.9003
X9.0232 Y6.5832 Z0.9013
X9.018 Y6.5817 Z0.9028
X9.0131 Y6.5802 Z0.905
X9.0084 Y6.5789 Z0.9077
X9.004 Y6.5776 Z0.9109
X9. Y6.5764 Z0.9146
X8.9964 Y6.5753 Z0.9188
X8.9933 Y6.5744 Z0.9234
X8.9907 Y6.5737 Z0.9283
X8.9886 Y6.5731 Z0.9335
X8.9871 Y6.5726 Z0.9389
X8.9862 Y6.5724 Z0.9444
X8.9859 Y6.5723 Z0.95
X9.0141 Y6.4763
Z0. F13.3
X9.0144 Y6.4764 Z-0.0056 F120.
X9.0153 Y6.4767 Z-0.0111
X9.0168 Y6.4771 Z-0.0165
X9.0188 Y6.4777 Z-0.0217
X9.0214 Y6.4785 Z-0.0266
X9.0246 Y6.4794 Z-0.0312
X9.0281 Y6.4804 Z-0.0354
X9.0321 Y6.4816 Z-0.0391
X9.0365 Y6.4829 Z-0.0423
X9.0412 Y6.4843 Z-0.045
X9.0462 Y6.4858 Z-0.0472
X9.0514 Y6.4873 Z-0.0487
X9.0567 Y6.4888 Z-0.0497
X9.0621 Y6.4904 Z-0.05
X9.11 Y6.5045
G3 X9.1439 Y6.5666 I-0.0141 J0.048
X8.8561 Y6.482 I-0.1439 J-0.0423
X9.1439 Y6.5666 I0.1439 J0.0423
X9.0819 Y6.6004 I-0.048 J-0.0141
G1 X9.0339 Y6.5864
X9.0285 Y6.5848 Z-0.0497
X9.0232 Y6.5832 Z-0.0487
X9.018 Y6.5817 Z-0.0472
X9.0131 Y6.5802 Z-0.045
X9.0084 Y6.5789 Z-0.0423
X9.004 Y6.5776 Z-0.0391
X9. Y6.5764 Z-0.0354
X8.9964 Y6.5753 Z-0.0312
X8.9933 Y6.5744 Z-0.0266
X8.9907 Y6.5737 Z-0.0217
X8.9886 Y6.5731 Z-0.0165
X8.9871 Y6.5726 Z-0.0111
X8.9862 Y6.5724 Z-0.0056
X8.9859 Y6.5723 Z0.
G0 Z2.2
X6.6133 Y9.6058
G1 Z0.95 F13.3
G18 G2 X6.6633 Z0.9 I0.05 K0. F120.
G1 X6.7133
G17 G3 X6.7633 Y9.6558 I0. J0.05
X6.4633 I-0.15 J0.
X6.7633 I0.15 J0.
X6.7133 Y9.7058 I-0.05 J0.
G1 X6.6633
G18 G3 X6.6133 Z0.95 I0. K0.05
G1 Y9.6058
Z0. F13.3
G2 X6.6633 Z-0.05 I0.05 K0. F120.
G1 X6.7133
G17 G3 X6.7633 Y9.6558 I0. J0.05
X6.4633 I-0.15 J0.
X6.7633 I0.15 J0.
X6.7133 Y9.7058 I-0.05 J0.
G1 X6.6633
G18 G3 X6.6133 Z0. I0. K0.05
G0 Z2.2
X11.4008 Y9.6078
G1 Z0.95 F13.3
X11.4011 Y9.6079 Z0.9444 F120.
X11.402 Y9.6082 Z0.9389
X11.4035 Y9.6086 Z0.9335
X11.4055 Y9.6092 Z0.9283
X11.4081 Y9.61 Z0.9234
X11.4112 Y9.6109 Z0.9188
X11.4148 Y9.6119 Z0.9146
X11.4188 Y9.6131 Z0.9109
X11.4232 Y9.6144 Z0.9077
X11.4279 Y9.6158 Z0.905
X11.4329 Y9.6172 Z0.9028
X11.4381 Y9.6188 Z0.9013
X11.4434 Y9.6203 Z0.9003
X11.4488 Y9.6219 Z0.9
X11.4967 Y9.636
G17 G3 X11.5306 Y9.698 I-0.0141 J0.048
X11.2428 Y9.6135 I-0.1439 J-0.0423
X11.5306 Y9.698 I0.1439 J0.0423
X11.4686 Y9.7319 I-0.048 J-0.0141
G1 X11.4206 Y9.7178
X11.4152 Y9.7163 Z0.9003
X11.4099 Y9.7147 Z0.9013
X11.4047 Y9.7132 Z0.9028
X11.3998 Y9.7117 Z0.905
X11.3951 Y9.7104 Z0.9077
X11.3907 Y9.7091 Z0.9109
X11.3867 Y9.7079 Z0.9146
X11.3831 Y9.7068 Z0.9188
X11.38 Y9.7059 Z0.9234
X11.3774 Y9.7052 Z0.9283
X11.3753 Y9.7046 Z0.9335
X11.3738 Y9.7041 Z0.9389
X11.3729 Y9.7039 Z0.9444
X11.3726 Y9.7038 Z0.95
X11.4008 Y9.6078
Z0. F13.3
X11.4011 Y9.6079 Z-0.0056 F120.
X11.402 Y9.6082 Z-0.0111
X11.4035 Y9.6086 Z-0.0165
X11.4055 Y9.6092 Z-0.0217
X11.4081 Y9.61 Z-0.0266
X11.4112 Y9.6109 Z-0.0312
X11.4148 Y9.6119 Z-0.0354
X11.4188 Y9.6131 Z-0.0391
X11.4232 Y9.6144 Z-0.0423
X11.4279 Y9.6158 Z-0.045
X11.4329 Y9.6172 Z-0.0472
X11.4381 Y9.6188 Z-0.0487
X11.4434 Y9.6203 Z-0.0497
X11.4488 Y9.6219 Z-0.05
X11.4967 Y9.636
G3 X11.5306 Y9.698 I-0.0141 J0.048
X11.2428 Y9.6135 I-0.1439 J-0.0423
X11.5306 Y9.698 I0.1439 J0.0423
X11.4686 Y9.7319 I-0.048 J-0.0141
G1 X11.4206 Y9.7178
X11.4152 Y9.7163 Z-0.0497
X11.4099 Y9.7147 Z-0.0487
X11.4047 Y9.7132 Z-0.0472
X11.3998 Y9.7117 Z-0.045
X11.3951 Y9.7104 Z-0.0423
X11.3907 Y9.7091 Z-0.0391
X11.3867 Y9.7079 Z-0.0354
X11.3831 Y9.7068 Z-0.0312
X11.38 Y9.7059 Z-0.0266
X11.3774 Y9.7052 Z-0.0217
X11.3753 Y9.7046 Z-0.0165
X11.3738 Y9.7041 Z-0.0111
X11.3729 Y9.7039 Z-0.0056
X11.3726 Y9.7038 Z0.
G0 Z2.6

(CONTOUR1)
G0 X0.5622 Y0.8973
Z2.6
Z1.9859
G1 Z1.97 F120.
X0.5626 Z1.9644
X0.5635 Z1.9589
X0.565 Y0.8974 Z1.9535
X0.5672 Y0.8975 Z1.9483
X0.5699 Y0.8976 Z1.9434
X0.5731 Y0.8978 Z1.9388
X0.5769 Y0.8979 Z1.9346
X0.581 Y0.8981 Z1.9309
X0.5856 Y0.8983 Z1.9277
X0.5905 Y0.8985 Z1.925
X0.5957 Y0.8987 Z1.9228
X0.6011 Y0.899 Z1.9213
X0.6066 Y0.8992 Z1.9203
X0.6122 Y0.8995 Z1.92
G3 X0.66 Y0.9516 I-0.0022 J0.05
G1 X0.6596 Y0.9601
X0.6591 Y0.9754
Y0.9908
Y14.4124
G2 X1.0562 Y15.056 I0.6987 J0.0132
X1.3486 Y15.1163 I0.2805 J-0.6209
G1 X16.6514
G2 X17.3053 Y14.6417 I0.0107 J-0.6731
X17.3409 Y14.4124 I-0.6809 J-0.2231
G1 Y0.9908
G2 X16.6514 Y0.293 I-0.6846 J-0.0131
G1 X1.3486
G2 X0.6595 Y0.9516 I-0.0051 J0.6844
G1 X0.659 Y0.9571
X0.6579 Y0.9626
X0.6561 Y0.9679
X0.6538 Y0.9729
X0.6509 Y0.9777
X0.6475 Y0.9821
X0.6436 Y0.9861
X0.6393 Y0.9897
X0.6347 Y0.9928
X0.6297 Y0.9953
X0.6244 Y0.9972
X0.619 Y0.9985
X0.6134 Y0.9993
X0.6078 Y0.9994
X0.6041 Y0.9993
X0.6004 Y0.9996
X0.5282 Y1.0072
G3 X0.5151 Y0.8829 I-0.0066 J-0.0622
X0.5758 Y0.9137 I0.0066 J0.0622
G1 X0.5766 Y0.9152 F13.3
G3 X0.4667 Y0.9749 Z1.9131 I-0.0549 J0.0298
X0.5766 Y0.9152 Z1.9063 I0.0549 J-0.0298
X0.4667 Y0.9749 Z1.8994 I-0.0549 J0.0298
X0.5766 Y0.9152 Z1.8926 I0.0549 J-0.0298
X0.4667 Y0.9749 Z1.8857 I-0.0549 J0.0298
X0.5766 Y0.9152 Z1.8788 I0.0549 J-0.0298
X0.4667 Y0.9749 Z1.872 I-0.0549 J0.0298
X0.5766 Y0.9152 Z1.8651 I0.0549 J-0.0298
X0.4667 Y0.9749 Z1.8583 I-0.0549 J0.0298
X0.5766 Y0.9152 Z1.8514 I0.0549 J-0.0298
X0.4667 Y0.9749 Z1.8446 I-0.0549 J0.0298
X0.5227 Y0.8826 Z1.84 I0.0549 J-0.0298
G1 X0.5244
X0.5499 Y0.8837 F120.
G3 X0.6101 Y0.9494 I-0.0028 J0.0629
G2 X0.6091 Y0.9908 I0.6256 J0.0351
G1 Y14.4124
G2 X0.9772 Y15.0712 I0.7514 J0.0124
X1.3486 Y15.1663 I0.361 J-0.6371
G1 X16.6514
G2 X17.3529 Y14.657 I0.0107 J-0.723
X17.3909 Y14.4124 I-0.7037 J-0.2346
G1 Y0.9908
G2 X16.6514 Y0.2431 I-0.7345 J-0.0131
G1 X1.3486
G2 X0.6097 Y0.9494 I-0.0052 J0.7342
G1 X0.6092 Y0.955
X0.608 Y0.9604
X0.6063 Y0.9657
X0.6039 Y0.9708
X0.601 Y0.9755
X0.5976 Y0.98
X0.5938 Y0.984
X0.5895 Y0.9875
X0.5848 Y0.9906
X0.5798 Y0.9931
X0.5745 Y0.995
X0.5691 Y0.9964
X0.5635 Y0.9971
X0.5579 Y0.9972
G2 X0.5427 Y0.9989 I-0.0022 J0.05
G1 X0.5214 Y1.0046
G3 X0.4887 Y0.884 I-0.0164 J-0.0603
X0.5591 Y0.913 I0.0164 J0.0603
G1 X0.56 Y0.9145 F13.3
G3 X0.4501 Y0.9741 Z1.8331 I-0.0549 J0.0298
X0.56 Y0.9145 Z1.8263 I0.0549 J-0.0298
X0.4501 Y0.9741 Z1.8194 I-0.0549 J0.0298
X0.56 Y0.9145 Z1.8126 I0.0549 J-0.0298
X0.4501 Y0.9741 Z1.8057 I-0.0549 J0.0298
X0.56 Y0.9145 Z1.7988 I0.0549 J-0.0298
X0.4501 Y0.9741 Z1.792 I-0.0549 J0.0298
X0.56 Y0.9145 Z1.7851 I0.0549 J-0.0298
X0.4501 Y0.9741 Z1.7783 I-0.0549 J0.0298
X0.56 Y0.9145 Z1.7714 I0.0549 J-0.0298
X0.4501 Y0.9741 Z1.7646 I-0.0549 J0.0298
X0.506 Y0.8818 Z1.76 I0.0549 J-0.0298
G1 X0.5078 Y0.8819
X0.5333 Y0.883 F120.
G3 X0.5934 Y0.9487 I-0.0028 J0.0629
G1 X0.5929 Y0.9601
X0.5925 Y0.9754
Y0.9908
Y14.4124
G2 X0.9093 Y15.0558 I0.7812 J0.015
X1.2568 Y15.187 I0.4275 J-0.6059
X1.3333 Y15.1908 I0.091 J-1.0818
G1 X16.6667
G2 X17.344 Y14.7334 I-0.0009 J-0.7316
X17.4075 Y14.4124 I-0.7176 J-0.3087
G1 Y0.9908
G2 X16.6514 Y0.2265 I-0.7511 J-0.013
G1 X1.3486
G2 X0.5931 Y0.9487 I-0.0051 J0.7509
G1 X0.5925 Y0.9542
X0.5914 Y0.9597
X0.5896 Y0.965
X0.5873 Y0.97
X0.5844 Y0.9748
X0.581 Y0.9792
X0.5771 Y0.9832
X0.5728 Y0.9868
X0.5681 Y0.9898
X0.5632 Y0.9924
X0.5579 Y0.9943
X0.5525 Y0.9956
X0.5469 Y0.9964
X0.5413 Y0.9965
G2 X0.5177 Y1.0012 I-0.0022 J0.05
G3 X0.4819 Y1.004 I-0.0214 J-0.0452
X0.5026 Y0.8817 I0.018 J-0.0599
X0.5539 Y0.9128 I-0.0027 J0.0624 F13.3
G1 X0.5548 Y0.9143
G3 X0.4449 Y0.9739 Z1.7531 I-0.0549 J0.0298
X0.5548 Y0.9143 Z1.7463 I0.0549 J-0.0298
X0.4449 Y0.9739 Z1.7394 I-0.0549 J0.0298
X0.5548 Y0.9143 Z1.7326 I0.0549 J-0.0298
X0.4449 Y0.9739 Z1.7257 I-0.0549 J0.0298
X0.5548 Y0.9143 Z1.7188 I0.0549 J-0.0298
X0.4449 Y0.9739 Z1.712 I-0.0549 J0.0298
X0.5548 Y0.9143 Z1.7051 I0.0549 J-0.0298
X0.4449 Y0.9739 Z1.6983 I-0.0549 J0.0298
X0.5548 Y0.9143 Z1.6914 I0.0549 J-0.0298
X0.4449 Y0.9739 Z1.6846 I-0.0549 J0.0298
X0.5008 Y0.8816 Z1.68 I0.0549 J-0.0298
G1 X0.5026 Y0.8817
X0.528 Y0.8828 F120.
G3 X0.5882 Y0.9485 I-0.0028 J0.0629
G1 X0.5877 Y0.9601
X0.5873 Y0.9754
Y0.9908
Y14.443
G2 X0.9043 Y15.0796 I0.7814 J0.0081
X1.2108 Y15.2053 I0.4312 J-0.6147
X1.3333 Y15.2144 I0.1195 J-0.7848
G1 X16.6667
G2 X17.3586 Y14.7335 I0.004 J-0.7325
X17.409 Y14.5195 I-0.6574 J-0.2676
X17.4127 Y14.443 I-0.9242 J-0.0839
G1 Y0.9908
G2 X16.6514 Y0.2263 I-0.7516 J-0.0128
G1 X1.3486
G2 X0.5877 Y0.9484 I-0.0098 J0.7516
G1 X0.5872 Y0.954
X0.5861 Y0.9594
X0.5843 Y0.9647
X0.582 Y0.9698
X0.5792 Y0.9745
X0.5758 Y0.979
X0.5719 Y0.983
X0.5676 Y0.9865
X0.5629 Y0.9896
X0.5579 Y0.9921
X0.5527 Y0.9941
X0.5473 Y0.9954
X0.5417 Y0.9961
X0.5361 Y0.9962
G2 X0.5125 Y1.001 I-0.0022 J0.05
G3 X0.4767 Y1.0037 I-0.0214 J-0.0452
X0.4974 Y0.8814 I0.018 J-0.0599
X0.5487 Y0.9125 I-0.0027 J0.0624 F13.3
G1 X0.5496 Y0.9141
G3 X0.4397 Y0.9737 Z1.6731 I-0.0549 J0.0298
X0.5496 Y0.9141 Z1.6663 I0.0549 J-0.0298
X0.4397 Y0.9737 Z1.6594 I-0.0549 J0.0298
X0.5496 Y0.9141 Z1.6526 I0.0549 J-0.0298
X0.4397 Y0.9737 Z1.6457 I-0.0549 J0.0298
X0.5496 Y0.9141 Z1.6388 I0.0549 J-0.0298
X0.4397 Y0.9737 Z1.632 I-0.0549 J0.0298
X0.5496 Y0.9141 Z1.6251 I0.0549 J-0.0298
X0.4397 Y0.9737 Z1.6183 I-0.0549 J0.0298
X0.5496 Y0.9141 Z1.6114 I0.0549 J-0.0298
X0.4397 Y0.9737 Z1.6046 I-0.0549 J0.0298
X0.4956 Y0.8814 Z1.6 I0.0549 J-0.0298
G1 X0.4974
X0.5228 Y0.8825 F120.
G3 X0.583 Y0.9482 I-0.0028 J0.0629
G1 X0.5825 Y0.9601
X0.582 Y0.9754
Y0.9908
Y14.4583
G2 X0.9043 Y15.1069 I0.7811 J0.0162
X1.3333 Y15.238 I0.4193 J-0.6044
G1 X16.6667
G2 X17.3415 Y14.8099 I0.01 J-0.7301
X17.4171 Y14.4889 I-0.6828 J-0.3304
G1 X17.418 Y14.4736
Y14.4583
Y0.9908
G2 X16.6667 Y0.2263 I-0.7514 J-0.0129
G1 X1.3333
G2 X0.5826 Y0.9482 I0.0001 J0.7514
G1 X0.5821 Y0.9538
X0.5809 Y0.9592
X0.5792 Y0.9645
X0.5769 Y0.9696
X0.574 Y0.9743
X0.5706 Y0.9787
X0.5667 Y0.9828
X0.5624 Y0.9863
X0.5577 Y0.9894
X0.5527 Y0.9919
X0.5475 Y0.9938
X0.542 Y0.9952
X0.5365 Y0.9959
X0.5309 Y0.996
G2 X0.5073 Y1.0008 I-0.0022 J0.05
G3 X0.4715 Y1.0035 I-0.0214 J-0.0452
X0.4921 Y0.8812 I0.018 J-0.0599
X0.5435 Y0.9123 I-0.0027 J0.0624 F13.3
G1 X0.5443 Y0.9138
G3 X0.5519 Y0.9464 Z1.5988 I-0.0549 J0.0298
X0.427 Y0.9409 Z1.5919 I-0.0624 J-0.0027
X0.5519 Y0.9464 Z1.5851 I0.0624 J0.0027
X0.427 Y0.9409 Z1.5782 I-0.0624 J-0.0027
X0.5519 Y0.9464 Z1.5714 I0.0624 J0.0027
X0.427 Y0.9409 Z1.5645 I-0.0624 J-0.0027
X0.5519 Y0.9464 Z1.5577 I0.0624 J0.0027
X0.427 Y0.9409 Z1.5508 I-0.0624 J-0.0027
X0.5519 Y0.9464 Z1.544 I0.0624 J0.0027
X0.427 Y0.9409 Z1.5371 I-0.0624 J-0.0027
X0.5519 Y0.9464 Z1.5303 I0.0624 J0.0027
X0.427 Y0.9409 Z1.5234 I-0.0624 J-0.0027
X0.4904 Y0.8812 Z1.52 I0.0624 J0.0027
G1 X0.4921
X0.5176 Y0.8823 F120.
G3 X0.5778 Y0.948 I-0.0028 J0.0629
G1 X0.5773 Y0.9601
X0.5768 Y0.9754
Y0.9908
Y14.4889
G2 X0.8891 Y15.1233 I0.7817 J0.0093
X1.318 Y15.2616 I0.4291 J-0.5967
G1 X16.682
G2 X17.3698 Y14.7788 I-0.0009 J-0.7326
X17.4196 Y14.5654 I-0.6621 J-0.2672
X17.4232 Y14.4889 I-0.9462 J-0.0826
G1 Y0.9908
G2 X16.6667 Y0.2263 I-0.7515 J-0.0129
G1 X1.3333
G2 X0.5774 Y0.948 I-0.0051 J0.7514
G1 X0.5768 Y0.9535
X0.5757 Y0.959
X0.574 Y0.9643
X0.5716 Y0.9693
X0.5687 Y0.9741
X0.5654 Y0.9785
X0.5615 Y0.9825
X0.5572 Y0.9861
X0.5525 Y0.9891
X0.5475 Y0.9917
X0.5423 Y0.9936
X0.5368 Y0.995
X0.5313 Y0.9957
X0.5257 Y0.9958
G2 X0.502 Y1.0006 I-0.0022 J0.05
G3 X0.4662 Y1.0033 I-0.0214 J-0.0452
X0.4869 Y0.881 I0.018 J-0.0599
X0.5383 Y0.9121 I-0.0027 J0.0624 F13.3
G1 X0.5391 Y0.9136
G3 X0.4293 Y0.9732 Z1.5131 I-0.0549 J0.0298
X0.5391 Y0.9136 Z1.5063 I0.0549 J-0.0298
X0.4293 Y0.9732 Z1.4994 I-0.0549 J0.0298
X0.5391 Y0.9136 Z1.4926 I0.0549 J-0.0298
X0.4293 Y0.9732 Z1.4857 I-0.0549 J0.0298
X0.5391 Y0.9136 Z1.4788 I0.0549 J-0.0298
X0.4293 Y0.9732 Z1.472 I-0.0549 J0.0298
X0.5391 Y0.9136 Z1.4651 I0.0549 J-0.0298
X0.4293 Y0.9732 Z1.4583 I-0.0549 J0.0298
X0.5391 Y0.9136 Z1.4514 I0.0549 J-0.0298
X0.4293 Y0.9732 Z1.4446 I-0.0549 J0.0298
X0.4852 Y0.8809 Z1.44 I0.0549 J-0.0298
G1 X0.4869 Y0.881
X0.5124 Y0.8821 F120.
G3 X0.5726 Y0.9478 I-0.0028 J0.0629
G1 X0.5721 Y0.9601
X0.5716 Y0.9754
Y0.9908
Y14.5042
G2 X0.889 Y15.1508 I0.7823 J0.0171
X1.1342 Y15.2637 I0.4395 J-0.6315
X1.318 Y15.2853 I0.176 J-0.7076
G1 X16.682
G2 X17.3661 Y14.8253 I0.0046 J-0.7319
X17.4284 Y14.5042 I-0.7175 J-0.3059
G1 Y0.9908
G2 X16.6667 Y0.2263 I-0.7516 J-0.0128
G1 X1.3333
G2 X0.5721 Y0.9478 I-0.0101 J0.7517
G1 X0.5716 Y0.9533
X0.5704 Y0.9587
X0.5687 Y0.964
X0.5664 Y0.9691
X0.5635 Y0.9738
X0.5601 Y0.9783
X0.5562 Y0.9823
X0.5519 Y0.9858
X0.5473 Y0.9889
X0.5423 Y0.9914
X0.537 Y0.9934
X0.5316 Y0.9947
X0.5261 Y0.9954
X0.5205 Y0.9956
G2 X0.4968 Y1.0003 I-0.0022 J0.05
G3 X0.461 Y1.0031 I-0.0214 J-0.0452
X0.4817 Y0.8807 I0.018 J-0.0599
X0.5331 Y0.9119 I-0.0027 J0.0624 F13.3
G1 X0.5339 Y0.9134
G3 X0.4241 Y0.973 Z1.4331 I-0.0549 J0.0298
X0.5339 Y0.9134 Z1.4263 I0.0549 J-0.0298
X0.4241 Y0.973 Z1.4194 I-0.0549 J0.0298
X0.5339 Y0.9134 Z1.4126 I0.0549 J-0.0298
X0.4241 Y0.973 Z1.4057 I-0.0549 J0.0298
X0.5339 Y0.9134 Z1.3988 I0.0549 J-0.0298
X0.4241 Y0.973 Z1.392 I-0.0549 J0.0298
X0.5339 Y0.9134 Z1.3851 I0.0549 J-0.0298
X0.4241 Y0.973 Z1.3783 I-0.0549 J0.0298
X0.5339 Y0.9134 Z1.3714 I0.0549 J-0.0298
X0.4241 Y0.973 Z1.3646 I-0.0549 J0.0298
X0.48 Y0.8807 Z1.36 I0.0549 J-0.0298
G1 X0.4817
X0.5072 Y0.8819 F120.
G3 X0.5674 Y0.9476 I-0.0028 J0.0629
G1 X0.5668 Y0.9601
X0.5664 Y0.9754
Y0.9908
Y14.5348
G2 X0.8889 Y15.178 I0.7808 J0.0109
X1.318 Y15.3089 I0.4191 J-0.6054
G1 X16.682
G2 X17.3547 Y14.8861 I0.0103 J-0.7301
X17.4336 Y14.5348 I-0.7033 J-0.3425
G1 Y0.9908
G2 X16.682 Y0.2263 I-0.7514 J-0.0129
G1 X1.318
G2 X0.567 Y0.9475 I-0.0003 J0.7514
G1 X0.5664 Y0.9531
X0.5653 Y0.9585
X0.5635 Y0.9638
X0.5612 Y0.9689
X0.5583 Y0.9736
X0.5549 Y0.9781
X0.5511 Y0.9821
X0.5468 Y0.9856
X0.5421 Y0.9887
X0.5371 Y0.9912
X0.5318 Y0.9932
X0.5264 Y0.9945
X0.5208 Y0.9952
X0.5152 Y0.9953
G2 X0.4916 Y1.0001 I-0.0022 J0.05
G3 X0.4558 Y1.0028 I-0.0214 J-0.0452
X0.4765 Y0.8805 I0.018 J-0.0599
X0.5278 Y0.9116 I-0.0027 J0.0624 F13.3
G1 X0.5287 Y0.9131
G3 X0.4188 Y0.9728 Z1.3531 I-0.0549 J0.0298
X0.5287 Y0.9131 Z1.3463 I0.0549 J-0.0298
X0.4188 Y0.9728 Z1.3394 I-0.0549 J0.0298
X0.5287 Y0.9131 Z1.3326 I0.0549 J-0.0298
X0.4188 Y0.9728 Z1.3257 I-0.0549 J0.0298
X0.5287 Y0.9131 Z1.3188 I0.0549 J-0.0298
X0.4188 Y0.9728 Z1.312 I-0.0549 J0.0298
X0.5287 Y0.9131 Z1.3051 I0.0549 J-0.0298
X0.4188 Y0.9728 Z1.2983 I-0.0549 J0.0298
X0.5287 Y0.9131 Z1.2914 I0.0549 J-0.0298
X0.4188 Y0.9728 Z1.2846 I-0.0549 J0.0298
X0.4748 Y0.8805 Z1.28 I0.0549 J-0.0298
G1 X0.4765
X0.502 Y0.8816 F120.
G3 X0.5622 Y0.9473 I-0.0028 J0.0629
G1 X0.5616 Y0.9601
X0.5611 Y0.9754
Y0.9908
Y14.5654
G2 X0.8738 Y15.1944 I0.7803 J0.0043
X1.3027 Y15.3325 I0.4282 J-0.5947
G1 X16.6973
G2 X17.3771 Y14.8712 I-0.0003 J-0.732
X17.4389 Y14.5654 I-0.7154 J-0.3037
G1 Y0.9908
G2 X16.682 Y0.2263 I-0.7515 J-0.0129
G1 X1.318
G2 X0.5617 Y0.9473 I-0.0054 J0.7514
G1 X0.5612 Y0.9528
X0.5601 Y0.9583
X0.5583 Y0.9636
X0.556 Y0.9686
X0.5531 Y0.9734
X0.5497 Y0.9778
X0.5458 Y0.9818
X0.5415 Y0.9854
X0.5369 Y0.9885
X0.5319 Y0.991
X0.5266 Y0.9929
X0.5212 Y0.9943
X0.5156 Y0.995
X0.51 Y0.9951
G2 X0.4864 Y0.9999 I-0.0022 J0.05
G3 X0.4506 Y1.0026 I-0.0214 J-0.0452
X0.4713 Y0.8803 I0.018 J-0.0599
X0.5226 Y0.9114 I-0.0027 J0.0624 F13.3
G1 X0.5235 Y0.9129
G3 X0.4136 Y0.9725 Z1.2731 I-0.0549 J0.0298
X0.5235 Y0.9129 Z1.2663 I0.0549 J-0.0298
X0.4136 Y0.9725 Z1.2594 I-0.0549 J0.0298
X0.5235 Y0.9129 Z1.2526 I0.0549 J-0.0298
X0.4136 Y0.9725 Z1.2457 I-0.0549 J0.0298
X0.5235 Y0.9129 Z1.2388 I0.0549 J-0.0298
X0.4136 Y0.9725 Z1.232 I-0.0549 J0.0298
X0.5235 Y0.9129 Z1.2251 I0.0549 J-0.0298
X0.4136 Y0.9725 Z1.2183 I-0.0549 J0.0298
X0.5235 Y0.9129 Z1.2114 I0.0549 J-0.0298
X0.4136 Y0.9725 Z1.2046 I-0.0549 J0.0298
X0.4695 Y0.8802 Z1.2 I0.0549 J-0.0298
G1 X0.4713 Y0.8803
X0.4968 Y0.8814 F120.
G3 X0.557 Y0.9471 I-0.0028 J0.0629
G1 X0.5564 Y0.9601
X0.5559 Y0.9754
Y0.9908
Y14.5807
G2 X0.9238 Y15.2549 I0.7775 J0.0131
X1.1496 Y15.3416 I0.3898 J-0.6776
X1.3027 Y15.3561 I0.145 J-0.7135
G1 X16.6973
G2 X17.3794 Y14.9018 I0.0051 J-0.7315
X17.4441 Y14.5807 I-0.713 J-0.3107
G1 Y0.9908
G2 X16.682 Y0.2263 I-0.7516 J-0.0128
G1 X1.318
G2 X0.5564 Y0.9471 I-0.0105 J0.7516
G1 X0.5559 Y0.9526
X0.5548 Y0.958
X0.5531 Y0.9633
X0.5507 Y0.9684
X0.5479 Y0.9732
X0.5445 Y0.9776
X0.5406 Y0.9816
X0.5363 Y0.9852
X0.5316 Y0.9882
X0.5266 Y0.9907
X0.5214 Y0.9927
X0.516 Y0.994
X0.5104 Y0.9948
X0.5048 Y0.9949
G2 X0.4812 Y0.9996 I-0.0022 J0.05
G3 X0.4454 Y1.0024 I-0.0214 J-0.0452
X0.4661 Y0.8801 I0.018 J-0.0599
X0.5174 Y0.9112 I-0.0027 J0.0624 F13.3
G1 X0.5183 Y0.9127
G3 X0.4084 Y0.9723 Z1.1931 I-0.0549 J0.0298
X0.5183 Y0.9127 Z1.1863 I0.0549 J-0.0298
X0.4084 Y0.9723 Z1.1794 I-0.0549 J0.0298
X0.5183 Y0.9127 Z1.1726 I0.0549 J-0.0298
X0.4084 Y0.9723 Z1.1657 I-0.0549 J0.0298
X0.5183 Y0.9127 Z1.1588 I0.0549 J-0.0298
X0.4084 Y0.9723 Z1.152 I-0.0549 J0.0298
X0.5183 Y0.9127 Z1.1451 I0.0549 J-0.0298
X0.4084 Y0.9723 Z1.1383 I-0.0549 J0.0298
X0.5183 Y0.9127 Z1.1314 I0.0549 J-0.0298
X0.4084 Y0.9723 Z1.1246 I-0.0549 J0.0298
X0.4643 Y0.88 Z1.12 I0.0549 J-0.0298
G1 X0.4661 Y0.8801
X0.4916 Y0.8812 F120.
G3 X0.5517 Y0.9469 I-0.0028 J0.0629
G1 X0.5512 Y0.9601
X0.5507 Y0.9754
Y0.9908
Y14.6113
G2 X0.8737 Y15.2491 I0.7799 J0.0057
X1.3027 Y15.3798 I0.4185 J-0.6044
G1 X16.6973
G2 X17.3851 Y14.9242 I0.0101 J-0.7318
X17.4493 Y14.6113 I-0.7158 J-0.3098
G1 Y0.9908
G2 X16.6973 Y0.2263 I-0.7514 J-0.0129
G1 X1.3027
G2 X0.5513 Y0.9469 I-0.0006 J0.7514
G1 X0.5508 Y0.9524
X0.5496 Y0.9578
X0.5479 Y0.9631
X0.5455 Y0.9682
X0.5427 Y0.9729
X0.5393 Y0.9774
X0.5354 Y0.9814
X0.5311 Y0.9849
X0.5264 Y0.988
X0.5214 Y0.9905
X0.5162 Y0.9925
X0.5108 Y0.9938
X0.5052 Y0.9945
X0.4996 Y0.9946
G2 X0.476 Y0.9994 I-0.0022 J0.05
G3 X0.4402 Y1.0021 I-0.0214 J-0.0452
X0.4609 Y0.8798 I0.018 J-0.0599
X0.5122 Y0.9109 I-0.0027 J0.0624 F13.3
G1 X0.5131 Y0.9125
G3 X0.4032 Y0.9721 Z1.1131 I-0.0549 J0.0298
X0.5131 Y0.9125 Z1.1063 I0.0549 J-0.0298
X0.4032 Y0.9721 Z1.0994 I-0.0549 J0.0298
X0.5131 Y0.9125 Z1.0926 I0.0549 J-0.0298
X0.4032 Y0.9721 Z1.0857 I-0.0549 J0.0298
X0.5131 Y0.9125 Z1.0788 I0.0549 J-0.0298
X0.4032 Y0.9721 Z1.072 I-0.0549 J0.0298
X0.5131 Y0.9125 Z1.0651 I0.0549 J-0.0298
X0.4032 Y0.9721 Z1.0583 I-0.0549 J0.0298
X0.5131 Y0.9125 Z1.0514 I0.0549 J-0.0298
X0.4032 Y0.9721 Z1.0446 I-0.0549 J0.0298
X0.4591 Y0.8798 Z1.04 I0.0549 J-0.0298
G1 X0.4609
X0.4863 Y0.881 F120.
G3 X0.5465 Y0.9466 I-0.0028 J0.0629
G1 X0.5459 Y0.9601
X0.5455 Y0.9754
Y0.9908
Y14.6266
G2 X0.8646 Y15.2701 I0.7811 J0.0134
X1.1649 Y15.3937 I0.4296 J-0.6168
X1.2874 Y15.4034 I0.1209 J-0.7499
G1 X16.7126
G2 X17.3904 Y14.9477 I0.0002 J-0.7316
X17.4545 Y14.6266 I-0.7171 J-0.3101
G1 Y0.9908
G2 X16.6973 Y0.2263 I-0.7515 J-0.0129
G1 X1.3027
G2 X0.5461 Y0.9466 I-0.0058 J0.7515
G1 X0.5455 Y0.9522
X0.5444 Y0.9576
X0.5427 Y0.9629
X0.5403 Y0.9679
X0.5375 Y0.9727
X0.5341 Y0.9771
X0.5302 Y0.9812
X0.5259 Y0.9847
X0.5212 Y0.9878
X0.5162 Y0.9903
X0.511 Y0.9922
X0.5055 Y0.9936
X0.5 Y0.9943
X0.4944 Y0.9944
G2 X0.4708 Y0.9992 I-0.0022 J0.05
G3 X0.435 Y1.0019 I-0.0214 J-0.0452
X0.4557 Y0.8796 I0.018 J-0.0599
X0.507 Y0.9107 I-0.0027 J0.0624 F13.3
G1 X0.5078 Y0.9122
G3 X0.398 Y0.9719 Z1.0331 I-0.0549 J0.0298
X0.5078 Y0.9122 Z1.0263 I0.0549 J-0.0298
X0.398 Y0.9719 Z1.0194 I-0.0549 J0.0298
X0.5078 Y0.9122 Z1.0126 I0.0549 J-0.0298
X0.398 Y0.9719 Z1.0057 I-0.0549 J0.0298
X0.5078 Y0.9122 Z0.9988 I0.0549 J-0.0298
X0.398 Y0.9719 Z0.992 I-0.0549 J0.0298
X0.5078 Y0.9122 Z0.9851 I0.0549 J-0.0298
X0.398 Y0.9719 Z0.9783 I-0.0549 J0.0298
X0.5078 Y0.9122 Z0.9714 I0.0549 J-0.0298
X0.398 Y0.9719 Z0.9646 I-0.0549 J0.0298
X0.4539 Y0.8796 Z0.96 I0.0549 J-0.0298
G1 X0.4557
X0.4811 Y0.8807 F120.
G3 X0.5413 Y0.9464 I-0.0028 J0.0629
G1 X0.5407 Y0.9601
X0.5402 Y0.9754
Y0.9908
Y14.6573
G2 X0.8584 Y15.293 I0.7811 J0.0066
X1.1649 Y15.4181 I0.4293 J-0.6137
X1.2874 Y15.427 I0.1196 J-0.7994
G1 X16.7126
G2 X17.399 Y14.963 I0.0052 J-0.7321
X17.4598 Y14.6573 I-0.7132 J-0.3006
G1 Y0.9908
G2 X16.6973 Y0.2263 I-0.7516 J-0.0128
G1 X1.3027
G2 X0.5408 Y0.9464 I-0.0108 J0.7516
G1 X0.5403 Y0.9519
X0.5392 Y0.9574
X0.5374 Y0.9626
X0.5351 Y0.9677
X0.5322 Y0.9725
X0.5288 Y0.9769
X0.525 Y0.9809
X0.5207 Y0.9845
X0.516 Y0.9875
X0.511 Y0.9901
X0.5058 Y0.992
X0.5003 Y0.9933
X0.4948 Y0.9941
X0.4892 Y0.9942
G2 X0.4656 Y0.999 I-0.0022 J0.05
G3 X0.4297 Y1.0017 I-0.0214 J-0.0452
X0.4504 Y0.8794 I0.018 J-0.0599
X0.5018 Y0.9105 I-0.0027 J0.0624 F13.3
G1 X0.5026 Y0.912
G3 X0.3928 Y0.9716 Z0.9531 I-0.0549 J0.0298
X0.5026 Y0.912 Z0.9463 I0.0549 J-0.0298
X0.3928 Y0.9716 Z0.9394 I-0.0549 J0.0298
X0.5026 Y0.912 Z0.9326 I0.0549 J-0.0298
X0.3928 Y0.9716 Z0.9257 I-0.0549 J0.0298
X0.5026 Y0.912 Z0.9188 I0.0549 J-0.0298
X0.3928 Y0.9716 Z0.912 I-0.0549 J0.0298
X0.5026 Y0.912 Z0.9051 I0.0549 J-0.0298
X0.3928 Y0.9716 Z0.8983 I-0.0549 J0.0298
X0.5026 Y0.912 Z0.8914 I0.0549 J-0.0298
X0.3928 Y0.9716 Z0.8846 I-0.0549 J0.0298
X0.4487 Y0.8793 Z0.88 I0.0549 J-0.0298
G1 X0.4504 Y0.8794
X0.4759 Y0.8805 F120.
G3 X0.5361 Y0.9462 I-0.0028 J0.0629
G1 X0.5355 Y0.9601
X0.535 Y0.9754
Y0.9908
Y14.6726
G2 X0.8584 Y15.3202 I0.7805 J0.0149
X1.3027 Y15.4506 I0.42 J-0.6088
G1 X16.7126
G2 X17.3877 Y15.0242 I0.0111 J-0.7301
X17.463 Y14.7338 I-0.6828 J-0.332
G1 X17.4644 Y14.7032
X17.4649 Y14.6879
X17.465 Y14.6726
Y0.9908
G2 X16.7126 Y0.2263 I-0.7514 J-0.0129
G1 X1.2874
G2 X0.5357 Y0.9462 I-0.001 J0.7513
G1 X0.5351 Y0.9517
X0.534 Y0.9572
X0.5323 Y0.9624
X0.5299 Y0.9675
X0.5271 Y0.9723
X0.5237 Y0.9767
X0.5198 Y0.9807
X0.5155 Y0.9843
X0.5108 Y0.9873
X0.5058 Y0.9898
X0.5006 Y0.9918
X0.4951 Y0.9931
X0.4896 Y0.9939
X0.484 Y0.994
G2 X0.4603 Y0.9987 I-0.0022 J0.05
G3 X0.4245 Y1.0015 I-0.0214 J-0.0452
X0.4452 Y0.8792 I0.018 J-0.0599
X0.4966 Y0.9103 I-0.0027 J0.0624 F13.3
G1 X0.4974 Y0.9118
G3 X0.3876 Y0.9714 Z0.8731 I-0.0549 J0.0298
X0.4974 Y0.9118 Z0.8663 I0.0549 J-0.0298
X0.3876 Y0.9714 Z0.8594 I-0.0549 J0.0298
X0.4974 Y0.9118 Z0.8526 I0.0549 J-0.0298
X0.3876 Y0.9714 Z0.8457 I-0.0549 J0.0298
X0.4974 Y0.9118 Z0.8388 I0.0549 J-0.0298
X0.3876 Y0.9714 Z0.832 I-0.0549 J0.0298
X0.4974 Y0.9118 Z0.8251 I0.0549 J-0.0298
X0.3876 Y0.9714 Z0.8183 I-0.0549 J0.0298
X0.4974 Y0.9118 Z0.8114 I0.0549 J-0.0298
X0.3876 Y0.9714 Z0.8046 I-0.0549 J0.0298
X0.4435 Y0.8791 Z0.8 I0.0549 J-0.0298
G1 X0.4452 Y0.8792
X0.4707 Y0.8803 F120.
G3 X0.5309 Y0.946 I-0.0028 J0.0629
G1 X0.5303 Y0.9601
X0.5298 Y0.9754
Y0.9908
Y14.7032
G2 X0.8432 Y15.3367 I0.7808 J0.008
X1.2721 Y15.4743 I0.4278 J-0.5963
G1 X16.7279
G2 X17.416 Y14.9936 I0. J-0.7328
X17.4665 Y14.7797 I-0.6651 J-0.2699
X17.4702 Y14.7032 I-0.9651 J-0.0855
G1 Y0.9908
G2 X16.7126 Y0.2263 I-0.7515 J-0.0129
G1 X1.2874
G2 X0.5304 Y0.9459 I-0.0062 J0.7514
G1 X0.5299 Y0.9515
X0.5288 Y0.9569
X0.527 Y0.9622
X0.5247 Y0.9673
X0.5218 Y0.972
X0.5184 Y0.9765
X0.5146 Y0.9805
X0.5103 Y0.984
X0.5056 Y0.9871
X0.5006 Y0.9896
X0.4953 Y0.9916
X0.4899 Y0.9929
X0.4844 Y0.9936
X0.4787 Y0.9937
G2 X0.4551 Y0.9985 I-0.0022 J0.05
G3 X0.4193 Y1.0012 I-0.0214 J-0.0452
X0.44 Y0.8789 I0.018 J-0.0599
X0.4914 Y0.91 I-0.0027 J0.0624 F13.3
G1 X0.4922 Y0.9115
G3 X0.3823 Y0.9712 Z0.7931 I-0.0549 J0.0298
X0.4922 Y0.9115 Z0.7863 I0.0549 J-0.0298
X0.3823 Y0.9712 Z0.7794 I-0.0549 J0.0298
X0.4922 Y0.9115 Z0.7726 I0.0549 J-0.0298
X0.3823 Y0.9712 Z0.7657 I-0.0549 J0.0298
X0.4922 Y0.9115 Z0.7588 I0.0549 J-0.0298
X0.3823 Y0.9712 Z0.752 I-0.0549 J0.0298
X0.4922 Y0.9115 Z0.7451 I0.0549 J-0.0298
X0.3823 Y0.9712 Z0.7383 I-0.0549 J0.0298
X0.4922 Y0.9115 Z0.7314 I0.0549 J-0.0298
X0.3823 Y0.9712 Z0.7246 I-0.0549 J0.0298
X0.4383 Y0.8789 Z0.72 I0.0549 J-0.0298
G1 X0.44
X0.4655 Y0.88 F120.
G3 X0.5257 Y0.9457 I-0.0028 J0.0629
G1 X0.525 Y0.9601
X0.5246 Y0.9754
Y0.9908
Y14.7185
G2 X0.8431 Y15.3642 I0.7817 J0.0158
X1.0123 Y15.4531 I0.466 J-0.6811
X1.2721 Y15.4979 I0.2537 J-0.6965
G1 X16.7279
G2 X17.3838 Y15.1008 I0.0066 J-0.7292
X17.4754 Y14.7185 I-0.6955 J-0.3689
G1 Y0.9908
G2 X16.7126 Y0.2263 I-0.7517 J-0.0128
G1 X1.2874
G2 X0.5252 Y0.9457 I-0.0112 J0.7517
G1 X0.5247 Y0.9512
X0.5235 Y0.9567
X0.5218 Y0.962
X0.5195 Y0.967
X0.5166 Y0.9718
X0.5132 Y0.9762
X0.5093 Y0.9802
X0.505 Y0.9838
X0.5004 Y0.9868
X0.4954 Y0.9894
X0.4901 Y0.9913
X0.4847 Y0.9927
X0.4791 Y0.9934
X0.4735 Y0.9935
G2 X0.4499 Y0.9983 I-0.0022 J0.05
G3 X0.4141 Y1.001 I-0.0214 J-0.0452
X0.4348 Y0.8787 I0.018 J-0.0599
X0.4861 Y0.9098 I-0.0027 J0.0624 F13.3
G1 X0.487 Y0.9113
G3 X0.3771 Y0.9709 Z0.7131 I-0.0549 J0.0298
X0.487 Y0.9113 Z0.7063 I0.0549 J-0.0298
X0.3771 Y0.9709 Z0.6994 I-0.0549 J0.0298
X0.487 Y0.9113 Z0.6926 I0.0549 J-0.0298
X0.3771 Y0.9709 Z0.6857 I-0.0549 J0.0298
X0.487 Y0.9113 Z0.6788 I0.0549 J-0.0298
X0.3771 Y0.9709 Z0.672 I-0.0549 J0.0298
X0.487 Y0.9113 Z0.6651 I0.0549 J-0.0298
X0.3771 Y0.9709 Z0.6583 I-0.0549 J0.0298
X0.487 Y0.9113 Z0.6514 I0.0549 J-0.0298
X0.3771 Y0.9709 Z0.6446 I-0.0549 J0.0298
X0.4331 Y0.8786 Z0.64 I0.0549 J-0.0298
G1 X0.4348 Y0.8787
X0.4603 Y0.8798 F120.
G3 X0.5205 Y0.9455 I-0.0028 J0.0629
G1 X0.5198 Y0.9601
X0.5194 Y0.9754
Y0.9908
Y14.7491
G2 X0.843 Y15.3914 I0.7808 J0.0093
X1.2568 Y15.5215 I0.4181 J-0.6068
G1 X16.7432
G2 X17.4157 Y15.0678 I-0.0044 J-0.7317
X17.4807 Y14.7491 I-0.715 J-0.3116
G1 Y0.9908
G2 X16.7279 Y0.2263 I-0.7514 J-0.0129
G1 X1.2721
G2 X0.52 Y0.9455 I-0.0014 J0.7513
G1 X0.5195 Y0.951
X0.5184 Y0.9565
X0.5166 Y0.9618
X0.5143 Y0.9668
X0.5114 Y0.9716
X0.508 Y0.976
X0.5041 Y0.98
X0.4998 Y0.9836
X0.4952 Y0.9866
X0.4902 Y0.9892
X0.4849 Y0.9911
X0.4795 Y0.9924
X0.4739 Y0.9932
X0.4683 Y0.9933
G2 X0.4447 Y0.9981 I-0.0022 J0.05
G3 X0.4089 Y1.0008 I-0.0214 J-0.0452
X0.4296 Y0.8785 I0.018 J-0.0599
X0.4809 Y0.9096 I-0.0027 J0.0624 F13.3
G1 X0.4818 Y0.9111
G3 X0.3719 Y0.9707 Z0.6331 I-0.0549 J0.0298
X0.4818 Y0.9111 Z0.6263 I0.0549 J-0.0298
X0.3719 Y0.9707 Z0.6194 I-0.0549 J0.0298
X0.4818 Y0.9111 Z0.6126 I0.0549 J-0.0298
X0.3719 Y0.9707 Z0.6057 I-0.0549 J0.0298
X0.4818 Y0.9111 Z0.5988 I0.0549 J-0.0298
X0.3719 Y0.9707 Z0.592 I-0.0549 J0.0298
X0.4818 Y0.9111 Z0.5851 I0.0549 J-0.0298
X0.3719 Y0.9707 Z0.5783 I-0.0549 J0.0298
X0.4818 Y0.9111 Z0.5714 I0.0549 J-0.0298
X0.3719 Y0.9707 Z0.5646 I-0.0549 J0.0298
X0.4278 Y0.8784 Z0.56 I0.0549 J-0.0298
G1 X0.4296 Y0.8785
X0.4551 Y0.8796 F120.
G3 X0.5152 Y0.9453 I-0.0028 J0.0629
G1 X0.5146 Y0.9601
X0.5141 Y0.9754
Y0.9908
Y14.7644
G2 X0.8279 Y15.4079 I0.7818 J0.0171
X1.2415 Y15.5452 I0.4286 J-0.5995
G1 X1.2568
X16.7432
G2 X17.4234 Y15.0855 I0.0008 J-0.7319
X17.4859 Y14.7644 I-0.7195 J-0.3065
G1 Y0.9908
G2 X16.7279 Y0.2263 I-0.7515 J-0.0129
G1 X1.2721
G2 X0.5148 Y0.9453 I-0.0065 J0.7514
G1 X0.5143 Y0.9508
X0.5131 Y0.9562
X0.5114 Y0.9615
X0.5091 Y0.9666
X0.5062 Y0.9714
X0.5028 Y0.9758
X0.4989 Y0.9798
X0.4946 Y0.9834
X0.4899 Y0.9864
X0.4849 Y0.9889
X0.4797 Y0.9909
X0.4743 Y0.9922
X0.4687 Y0.9929
X0.4631 Y0.993
G2 X0.4395 Y0.9978 I-0.0022 J0.05
G3 X0.4037 Y1.0005 I-0.0214 J-0.0452
X0.4244 Y0.8782 I0.018 J-0.0599
X0.4757 Y0.9093 I-0.0027 J0.0624 F13.3
G1 X0.4766 Y0.9109
G3 X0.3667 Y0.9705 Z0.5531 I-0.0549 J0.0298
X0.4766 Y0.9109 Z0.5463 I0.0549 J-0.0298
X0.3667 Y0.9705 Z0.5394 I-0.0549 J0.0298
X0.4766 Y0.9109 Z0.5326 I0.0549 J-0.0298
X0.3667 Y0.9705 Z0.5257 I-0.0549 J0.0298
X0.4766 Y0.9109 Z0.5188 I0.0549 J-0.0298
X0.3667 Y0.9705 Z0.512 I-0.0549 J0.0298
X0.4766 Y0.9109 Z0.5051 I0.0549 J-0.0298
X0.3667 Y0.9705 Z0.4983 I-0.0549 J0.0298
X0.4766 Y0.9109 Z0.4914 I0.0549 J-0.0298
X0.3667 Y0.9705 Z0.4846 I-0.0549 J0.0298
X0.4226 Y0.8782 Z0.48 I0.0549 J-0.0298
G1 X0.4244
X0.4498 Y0.8794 F120.
G3 X0.51 Y0.945 I-0.0028 J0.0629
G1 X0.5094 Y0.9601
X0.5089 Y0.9754
Y0.9908
Y14.795
G2 X0.8324 Y15.4386 I0.7807 J0.0107
X1.2568 Y15.5688 I0.418 J-0.6055
G1 X16.7432
G2 X17.4257 Y15.116 I0.0062 J-0.7314
X17.4911 Y14.795 I-0.7112 J-0.312
G1 Y0.9908
G2 X16.7279 Y0.2263 I-0.7516 J-0.0128
G1 X1.2721
G2 X0.5095 Y0.945 I-0.0115 J0.7516
G1 X0.509 Y0.9506
X0.5079 Y0.956
X0.5061 Y0.9613
X0.5038 Y0.9663
X0.5009 Y0.9711
X0.4976 Y0.9755
X0.4937 Y0.9795
X0.4894 Y0.9831
X0.4847 Y0.9862
X0.4797 Y0.9887
X0.4745 Y0.9906
X0.4691 Y0.992
X0.4635 Y0.9927
X0.4579 Y0.9928
G2 X0.4343 Y0.9976 I-0.0022 J0.05
G3 X0.3985 Y1.0003 I-0.0214 J-0.0452
X0.4192 Y0.878 I0.018 J-0.0599
X0.4705 Y0.9091 I-0.0027 J0.0624 F13.3
G1 X0.4714 Y0.9106
G3 X0.3615 Y0.9703 Z0.4731 I-0.0549 J0.0298
X0.4714 Y0.9106 Z0.4663 I0.0549 J-0.0298
X0.3615 Y0.9703 Z0.4594 I-0.0549 J0.0298
X0.4714 Y0.9106 Z0.4526 I0.0549 J-0.0298
X0.3615 Y0.9703 Z0.4457 I-0.0549 J0.0298
X0.4714 Y0.9106 Z0.4388 I0.0549 J-0.0298
X0.3615 Y0.9703 Z0.432 I-0.0549 J0.0298
X0.4714 Y0.9106 Z0.4251 I0.0549 J-0.0298
X0.3615 Y0.9703 Z0.4183 I-0.0549 J0.0298
X0.4714 Y0.9106 Z0.4114 I0.0549 J-0.0298
X0.3615 Y0.9703 Z0.4046 I-0.0549 J0.0298
X0.4174 Y0.878 Z0.4 I0.0549 J-0.0298
G1 X0.4192
X0.4446 Y0.8791 F120.
G3 X0.5048 Y0.9448 I-0.0028 J0.0629
G1 X0.5041 Y0.9601
X0.5037 Y0.9754
Y0.9908
Y14.8103
G2 X0.8277 Y15.4626 I0.7813 J0.0185
X1.2415 Y15.5924 I0.4175 J-0.6062
G1 X16.7585
G2 X17.431 Y15.1396 I-0.0039 J-0.7316
X17.4963 Y14.8103 I-0.7205 J-0.3141
G1 Y0.9908
G2 X16.7432 Y0.2263 I-0.7514 J-0.0129
G1 X1.2568
G2 X0.5044 Y0.9448 I-0.0017 J0.7514
G1 X0.5039 Y0.9503
X0.5027 Y0.9558
X0.501 Y0.9611
X0.4986 Y0.9661
X0.4958 Y0.9709
X0.4924 Y0.9753
X0.4885 Y0.9793
X0.4842 Y0.9829
X0.4795 Y0.986
X0.4745 Y0.9885
X0.4693 Y0.9904
X0.4638 Y0.9918
X0.4583 Y0.9925
X0.4527 Y0.9926
G2 X0.4291 Y0.9974 I-0.0022 J0.05
G3 X0.3933 Y1.0001 I-0.0214 J-0.0452
X0.4139 Y0.8778 I0.018 J-0.0599
X0.4653 Y0.9089 I-0.0027 J0.0624 F13.3
G1 X0.4661 Y0.9104
G3 X0.3563 Y0.97 Z0.3931 I-0.0549 J0.0298
X0.4661 Y0.9104 Z0.3863 I0.0549 J-0.0298
X0.3563 Y0.97 Z0.3794 I-0.0549 J0.0298
X0.4661 Y0.9104 Z0.3726 I0.0549 J-0.0298
X0.3563 Y0.97 Z0.3657 I-0.0549 J0.0298
X0.4661 Y0.9104 Z0.3588 I0.0549 J-0.0298
X0.3563 Y0.97 Z0.352 I-0.0549 J0.0298
X0.4661 Y0.9104 Z0.3451 I0.0549 J-0.0298
X0.3563 Y0.97 Z0.3383 I-0.0549 J0.0298
X0.4661 Y0.9104 Z0.3314 I0.0549 J-0.0298
X0.3563 Y0.97 Z0.3246 I-0.0549 J0.0298
X0.4122 Y0.8777 Z0.32 I0.0549 J-0.0298
G1 X0.4139 Y0.8778
X0.4394 Y0.8789 F120.
G3 X0.4996 Y0.9446 I-0.0028 J0.0629
G1 X0.4989 Y0.9601
X0.4985 Y0.9754
Y0.9908
Y14.8409
G2 X0.82 Y15.4844 I0.7807 J0.012
X1.2415 Y15.616 I0.4198 J-0.6035
G1 X16.7585
G2 X17.4368 Y15.162 I0.0013 J-0.7316
X17.5015 Y14.8409 I-0.7158 J-0.3114
G1 Y0.9908
G2 X16.7432 Y0.2263 I-0.7515 J-0.0129
G1 X1.2568
G2 X0.4992 Y0.9446 I-0.0069 J0.7514
G1 X0.4986 Y0.9501
X0.4975 Y0.9555
X0.4958 Y0.9608
X0.4934 Y0.9659
X0.4905 Y0.9707
X0.4872 Y0.9751
X0.4833 Y0.9791
X0.479 Y0.9827
X0.4743 Y0.9857
X0.4693 Y0.9882
X0.4641 Y0.9902
X0.4586 Y0.9915
X0.4531 Y0.9923
X0.4475 Y0.9924
G2 X0.4238 Y0.9971 I-0.0022 J0.05
G3 X0.388 Y0.9999 I-0.0214 J-0.0452
X0.4087 Y0.8776 I0.018 J-0.0599
X0.4601 Y0.9087 I-0.0027 J0.0624 F13.3
G1 X0.4609 Y0.9102
G3 X0.3511 Y0.9698 Z0.3131 I-0.0549 J0.0298
X0.4609 Y0.9102 Z0.3063 I0.0549 J-0.0298
X0.3511 Y0.9698 Z0.2994 I-0.0549 J0.0298
X0.4609 Y0.9102 Z0.2926 I0.0549 J-0.0298
X0.3511 Y0.9698 Z0.2857 I-0.0549 J0.0298
X0.4609 Y0.9102 Z0.2788 I0.0549 J-0.0298
X0.3511 Y0.9698 Z0.272 I-0.0549 J0.0298
X0.4609 Y0.9102 Z0.2651 I0.0549 J-0.0298
X0.3511 Y0.9698 Z0.2583 I-0.0549 J0.0298
X0.4609 Y0.9102 Z0.2514 I0.0549 J-0.0298
X0.3511 Y0.9698 Z0.2446 I-0.0549 J0.0298
X0.407 Y0.8775 Z0.24 I0.0549 J-0.0298
G1 X0.4087 Y0.8776
X0.4342 Y0.8787 F120.
G3 X0.4944 Y0.9444 I-0.0028 J0.0629
G1 X0.4937 Y0.9601
X0.4932 Y0.9754
Y0.9908
Y14.8715
G2 X0.8125 Y15.5064 I0.7806 J0.0052
X1.0884 Y15.6254 I0.4312 J-0.6202
X1.2415 Y15.6397 I0.1437 J-0.716
G1 X16.7585
G2 X17.416 Y15.2408 I0.0073 J-0.7293
X17.5068 Y14.8715 I-0.6936 J-0.3662
G1 Y0.9908
G2 X16.7432 Y0.2263 I-0.7517 J-0.0128
G1 X1.2568
G2 X0.4939 Y0.9443 I-0.0119 J0.7517
G1 X0.4934 Y0.9499
X0.4922 Y0.9553
X0.4905 Y0.9606
X0.4882 Y0.9656
X0.4853 Y0.9704
X0.4819 Y0.9748
X0.478 Y0.9789
X0.4737 Y0.9824
X0.4691 Y0.9855
X0.4641 Y0.988
X0.4588 Y0.9899
X0.4534 Y0.9913
X0.4479 Y0.992
X0.4423 Y0.9921
G2 X0.4186 Y0.9969 I-0.0022 J0.05
G3 X0.3828 Y0.9996 I-0.0214 J-0.0452
X0.4035 Y0.8773 I0.018 J-0.0599
X0.4549 Y0.9084 I-0.0027 J0.0624 F13.3
G1 X0.4557 Y0.91
G3 X0.3459 Y0.9696 Z0.2331 I-0.0549 J0.0298
X0.4557 Y0.91 Z0.2263 I0.0549 J-0.0298
X0.3459 Y0.9696 Z0.2194 I-0.0549 J0.0298
X0.4557 Y0.91 Z0.2126 I0.0549 J-0.0298
X0.3459 Y0.9696 Z0.2057 I-0.0549 J0.0298
X0.4557 Y0.91 Z0.1988 I0.0549 J-0.0298
X0.3459 Y0.9696 Z0.192 I-0.0549 J0.0298
X0.4557 Y0.91 Z0.1851 I0.0549 J-0.0298
X0.3459 Y0.9696 Z0.1783 I-0.0549 J0.0298
X0.4557 Y0.91 Z0.1714 I0.0549 J-0.0298
X0.3459 Y0.9696 Z0.1646 I-0.0549 J0.0298
X0.4018 Y0.8773 Z0.16 I0.0549 J-0.0298
G1 X0.4035
X0.429 Y0.8784 F120.
G3 X0.4892 Y0.9441 I-0.0028 J0.0629
G1 X0.4885 Y0.9601
X0.488 Y0.9754
Y0.9908
Y14.8868
G2 X0.8125 Y15.5336 I0.7803 J0.0134
X1.2262 Y15.6633 I0.4167 J-0.6048
G1 X16.7738
G2 X17.4478 Y15.2079 I-0.0035 J-0.7316
X17.512 Y14.8868 I-0.7195 J-0.3108
G1 Y0.9908
G2 X16.7585 Y0.2263 I-0.7514 J-0.0129
G1 X1.2415
G2 X0.4888 Y0.9441 I-0.0021 J0.7513
G1 X0.4882 Y0.9497
X0.4871 Y0.9551
X0.4853 Y0.9604
X0.483 Y0.9654
X0.4801 Y0.9702
X0.4767 Y0.9746
X0.4729 Y0.9787
X0.4686 Y0.9822
X0.4639 Y0.9853
X0.4589 Y0.9878
X0.4536 Y0.9897
X0.4482 Y0.9911
X0.4426 Y0.9918
X0.437 Y0.9919
G2 X0.4134 Y0.9967 I-0.0022 J0.05
G3 X0.3776 Y0.9994 I-0.0214 J-0.0452
X0.3983 Y0.8771 I0.018 J-0.0599
X0.4497 Y0.9082 I-0.0027 J0.0624 F13.3
G1 X0.4505 Y0.9097
G3 X0.3406 Y0.9694 Z0.1531 I-0.0549 J0.0298
X0.4505 Y0.9097 Z0.1463 I0.0549 J-0.0298
X0.3406 Y0.9694 Z0.1394 I-0.0549 J0.0298
X0.4505 Y0.9097 Z0.1326 I0.0549 J-0.0298
X0.3406 Y0.9694 Z0.1257 I-0.0549 J0.0298
X0.4505 Y0.9097 Z0.1188 I0.0549 J-0.0298
X0.3406 Y0.9694 Z0.112 I-0.0549 J0.0298
X0.4505 Y0.9097 Z0.1051 I0.0549 J-0.0298
X0.3406 Y0.9694 Z0.0983 I-0.0549 J0.0298
X0.4505 Y0.9097 Z0.0914 I0.0549 J-0.0298
X0.3406 Y0.9694 Z0.0846 I-0.0549 J0.0298
X0.3966 Y0.877 Z0.08 I0.0549 J-0.0298
G1 X0.3983 Y0.8771
X0.4238 Y0.8782 F120.
G3 X0.484 Y0.9439 I-0.0028 J0.0629
G1 X0.4833 Y0.9601
X0.4828 Y0.9754
Y0.9908
Y14.9174
G2 X0.7973 Y15.5501 I0.7803 J0.0066
X1.2262 Y15.6869 I0.4264 J-0.5962
G1 X16.7738
G2 X17.4564 Y15.2232 I0.0014 J-0.7322
X17.5172 Y14.9174 I-0.7153 J-0.3011
G1 Y0.9908
G2 X16.7585 Y0.2263 I-0.7515 J-0.0129
G1 X1.2415
G2 X0.4835 Y0.9439 I-0.0072 J0.7515
G1 X0.483 Y0.9494
X0.4818 Y0.9549
X0.4801 Y0.9601
X0.4778 Y0.9652
X0.4749 Y0.97
X0.4715 Y0.9744
X0.4676 Y0.9784
X0.4633 Y0.982
X0.4587 Y0.985
X0.4537 Y0.9876
X0.4484 Y0.9895
X0.443 Y0.9908
X0.4374 Y0.9916
X0.4318 Y0.9917
G2 X0.4082 Y0.9965 I-0.0022 J0.05
G3 X0.3723 Y0.9991 I-0.0214 J-0.0452
X0.3931 Y0.8769 I0.018 J-0.0598
X0.4445 Y0.908 I-0.0027 J0.0624 F13.3
G1 X0.4453 Y0.9095
G3 X0.3355 Y0.9691 Z0.0731 I-0.0549 J0.0298
X0.4453 Y0.9095 Z0.0663 I0.0549 J-0.0298
X0.3355 Y0.9691 Z0.0594 I-0.0549 J0.0298
X0.4453 Y0.9095 Z0.0526 I0.0549 J-0.0298
X0.3355 Y0.9691 Z0.0457 I-0.0549 J0.0298
X0.4453 Y0.9095 Z0.0388 I0.0549 J-0.0298
X0.3355 Y0.9691 Z0.032 I-0.0549 J0.0298
X0.4453 Y0.9095 Z0.0251 I0.0549 J-0.0298
X0.3355 Y0.9691 Z0.0183 I-0.0549 J0.0298
X0.4453 Y0.9095 Z0.0114 I0.0549 J-0.0298
X0.3355 Y0.9691 Z0.0046 I-0.0549 J0.0298
X0.3914 Y0.8768 Z0. I0.0549 J-0.0298
G1 X0.3931 Y0.8769
X0.4186 Y0.878 F120.
G3 X0.4788 Y0.9437 I-0.0028 J0.0629
G1 X0.4781 Y0.9601
X0.4776 Y0.9754
Y0.9908
Y14.9327
G2 X0.7972 Y15.5774 I0.781 J0.0144
X1.0731 Y15.6963 I0.4318 J-0.6223
X1.2262 Y15.7104 I0.1437 J-0.7228
G1 X16.7738
G2 X17.4463 Y15.2814 I0.0075 J-0.7297
X17.5081 Y15.0915 I-0.6221 J-0.3078
X17.5224 Y14.9327 I-0.7549 J-0.1479
G1 Y0.9908
G2 X16.7585 Y0.2263 I-0.7517 J-0.0128
G1 X1.2415
G2 X0.4783 Y0.9437 I-0.0122 J0.7517
G1 X0.4776 Y0.9751
Y1.0065 Z-0.0002
X0.4775 Y1.038 Z-0.0004
Y1.0695 Z-0.0008
Y1.101 Z-0.0012
Y1.1325 Z-0.0017
X0.4774 Y1.164 Z-0.0022
Y1.1955 Z-0.0029
X0.4773 Y1.227 Z-0.0036
Y1.2585 Z-0.0044
X0.4772 Y1.29 Z-0.0052
Y1.3215 Z-0.0061
X0.4771 Y1.353 Z-0.0071
X0.477 Y1.3845 Z-0.0081
Y1.416 Z-0.0091
X0.4757 Y1.9515 Z-0.0278
X0.475 Y2.298 Z-0.0399
X0.4749 Y2.3295 Z-0.041
X0.4748 Y2.361 Z-0.0421
Y2.3925 Z-0.0431
X0.4747 Y2.424 Z-0.044
X0.4746 Y2.4555 Z-0.0449
Y2.487 Z-0.0458
X0.4745 Y2.5185 Z-0.0465
Y2.55 Z-0.0472
X0.4744 Y2.5815 Z-0.0479
Y2.613 Z-0.0484
Y2.6445 Z-0.0489
X0.4743 Y2.676 Z-0.0493
Y2.7075 Z-0.0496
Y2.739 Z-0.0498
Y2.7705 Z-0.05
Y2.7977
Y14.948
G2 X0.7972 Y15.5945 I0.7803 J0.0142
X1.2262 Y15.7253 I0.4184 J-0.6037
G1 X16.7738
G2 X17.4481 Y15.2997 I0.0106 J-0.73
X17.5252 Y14.9633 I-0.6895 J-0.3351
G1 X17.5257 Y14.948
Y0.9908
G2 X16.7738 Y0.2263 I-0.7514 J-0.0129
G1 X1.2262
G2 X0.4743 Y0.9908 I-0.0004 J0.7515
G1 Y2.7977
G3 X0.4243 Y2.8477 I-0.05 J0.
G18 G3 X0.3743 Z0. I0. K0.05
G0 Z2.6
G17

G28 G91 Z0.
G90
G28 G91 X0. Y0.
G90
M30
